!!!!SEGMENT: pl-sa--32-a-i-32_anonim--domine-ad-adjuvandum.krn
!!!cenid: 17xx:698
!!!COM: Anonim
!!!COM-rismID: pe30004985
!!!CDT:
!!!CNT:
!!!OTL: Domine ad adjuvandum
!!!PDT:
!!!AGN: Sacred
!!!SMS-siglum: PL-SA
!!!SMS-shelfmark: 32/A I 32
!!!SMS-shelfwork: W
!!!SMS-variant:
!!!SMS-altvar:
!!!NIFC-rismSourceID: 1001076840
!!!NIFC-rismChildID: 1001076840
!!!NIFC-islandoraID:
!!!URL-pdf-islandora:
!!!URL-scan: https://bc.bdsandomierz.pl/dlibra/publication/1265/edition/1233/content @EN{Scan in the Sandomierz Diocese Digital Library} @PL{Skany w portalu Cyfrowa Biblioteka Diecezjalna w Sandomierzu}
!!!ONB-nifc:
!!!AIN: 4 empty 1 tenor 2 violn 1 vox
!!!key:
**kern	**dynam	**kern	**dynam	**kern	**dynam	**kern	**text	**kern	**text	**kern	**text	**kern	**kern
*part8	*part8	*part7	*part7	*part6	*part6	*part5	*part5	*part4	*part4	*part3	*part3	*part2	*part1
*staff8	*	*staff7	*	*staff6	*	*staff5	*staff5	*staff4	*staff4	*staff3	*staff3	*staff2	*staff1
*Iempty	*	*Ivioln	*	*Ivioln	*	*Iempty	*	*Itenor	*	*Ivox	*	*Iempty	*Iempty
*I"Fondamento.	*	*I"Violino Secundo.	*	*I"Violino Primo.	*	*I"Baſso.	*	*I"Tenore.	*	*I"Canto.	*	*I"Cornu Secundo.	*I"Cornu Primo ex D
*I'Fond.	*	*I'Vn II	*	*I'Vn I	*	*I'B.	*	*I'T.	*	*I'C.	*	*I'C. 2	*I'C. 1 ex D
*clefF4	*	*clefG2	*	*clefG2	*	*clefF4	*	*clefC4	*	*clefC1	*	*clefG2	*clefG2
*	*	*	*	*	*	*	*	*	*	*	*	*ITrd-1c-2	*ITrd-1c-2
*k[f#c#]	*	*k[f#c#]	*	*k[f#c#]	*	*k[f#c#]	*	*k[f#c#]	*	*k[f#c#]	*	*k[f#c#]	*k[f#c#]
*D:	*	*D:	*	*D:	*	*D:	*	*D:	*	*D:	*	*	*
*M4/4	*	*M4/4	*	*M4/4	*	*M4/4	*	*M4/4	*	*M4/4	*	*M4/4	*M4/4
*met(c)	*	*met(c)	*	*met(c)	*	*met(c)	*	*met(c)	*	*met(c)	*	*met(c)	*met(c)
=1	=1	=1	=1	=1	=1	=1	=1	=1	=1	=1	=1	=1	=1
!LO:TX:b:i:t=Domine ad adjuvandum	!	!LO:TX:b:i:t=Domine ad adjuvandum.	!	!	!	!	!	!	!	!LO:TX:b:t=P:problem=litera "D" jako duży inicjał przed kluczem	!	!LO:TX:b:i:t=Domine ad adjuvandum.	!LO:TX:b:i:t=Domine ad adjuvandum.
!LO:TX:b:t=P:problem=litera "D" jako duży inicjał	!	!LO:TX:b:t=P:problem=litera "D" jako duży inicjał	!	!	!	!	!	!	!	!	!	!LO:TX:b:t=P:problem=litera "D" jako duży inicjał przed kluczem	!LO:TX:b:t=P:problem=litera "D" jako duży inicjał przed kluczem
!LO:TX:a:i:t=all(egr)o &colon;:rj	!	!	!	!	!	!	!	!LO:TX:b:t=P:problem=litera "D" jako duży inicjał przed kluczem	!	!	!	!	!
!LO:TX:a:i:t=Tutti	!	!	!	!	!	!LO:TX:b:t=P:problem=litera "D" jako duży inicjał przed kluczem	!	!LO:TX:a:i:t=Tutti&colon;	!	!LO:TX:b:t=P:problem=kolejność znaków odwrotna&colon; cis2, fis1	!	!LO:TX:a:i:t=All(egr)o&colon;:rj	!LO:TX:a:i:t=all(egr)o&colon;:rj
!	!	!	!	!LO:TX:a:i:t=Domine ad adjuvandum.	!	!LO:TX:a:i:t=all(egr)o&colon;:rj	!	!LO:TX:a:i:t=all(egr)o:rj	!	!LO:TX:a:i:t=all(egr)o:rj	!	!	!
!	!	!LO:TX:a:i:t=all(egr)o:rj	!	!LO:TX:a:i:t=all(egr)o.:rj	!	!	!	!	!	!	!	!	!
4d\	.	4ff#\	.	4ddd\	.	4d\	Do-	4A\	Do-	4ff#\	Do-	4dd\	4ff#\
4A\	.	4ee\	.	4ccc#\	.	4A\	-mi-	4c#\	-mi-	4ee\	-mi-	4a/	4ee\
4D\	.	4ff#\	.	4ddd\	.	4D\	-ne	4d\	-ne	4ff#\	-ne	4dd\	4ff#\
!	!	!	!	!	!	!	!	!LO:TX:a:i:t=Solo	!	!	!	!	!
4r	.	8r	.	8r	.	4r	.	8r	.	8r	.	4r	4r
!	!	!	!LO:HP:a:i:t=pia	!	!LO:HP:a:i:t=pia	!	!	!	!	!	!	!	!
!	!	!	!LO:DY:a	!	!LO:DY:a	!	!	!	!	!LO:TX:a:i:t=Solo	!	!	!
.	.	8dd\	p	8ff#\	p	.	.	8d\	ad	8ff#\	ad	.	.
=2	=2	=2	=2	=2	=2	=2	=2	=2	=2	=2	=2	=2	=2
!	!LO:HP:a:i:t=pia:	!	!	!	!	!	!	!	!	!	!	!	!
!	!LO:DY:a	!	!	!	!	!	!	!	!	!	!	!	!
8AA/L	p	(>4dd\	.	(>4ff#\	.	1r	.	(>4d\	ad-	(>4ff#\	ad-	1r	1r
8AA/	.	.	.	.	.	.	.	.	.	.	.	.	.
8AA/	.	8cc#\L)	.	8ee\L)	.	.	.	8c#\)	.	8ee\)	.	.	.
!LO:TX:a:i:t=Solo	!	!	!	!	!	!	!	!	!	!	!	!	!
8AA/J	.	8b\J|	.	8dd\J|	.	.	.	8B\	-ju-	8dd\	-ju-	.	.
8AA/L	.	(<4b/	.	(>4dd\	.	.	.	(>4B\	-van-	(>4dd\	-van-	.	.
8AA/	.	.	.	.	.	.	.	.	.	.	.	.	.
8AA/	.	8a/L)	.	8cc#\L)	.	.	.	8A\)	.	8cc#\)	.	.	.
8AA/J	.	8g/J	.	8b\J|	.	.	.	8G/	-dum	8b\	-dum	.	.
=3	=3	=3	=3	=3	=3	=3	=3	=3	=3	=3	=3	=3	=3
8AA/L	.	(<4g/	.	(<4b/	.	2r	.	(<4G/	me	(>4b\	me	2r	2r
8AA/	.	.	.	.	.	.	.	.	.	.	.	.	.
8AA/	.	8f#/L)	.	8a/L)	.	.	.	8F#/)	.	8a\)	.	.	.
8AA/J	.	8e/J|	.	8g/J|	.	.	.	8E/	fes-	8g\	fes-	.	.
!LO:TX:a:t=P:problem=mixed beam	!	!	!	!	!	!	!	!	!	!	!	!	!
8AA/L	.	(<4e/	.	4g/	.	4r	.	4E/	-ti-	4g\	-ti-	4r	4r
8AA/	.	.	.	.	.	.	.	.	.	.	.	.	.
!LO:TX:a:i:t=Tutti	!	!LO:TX:a:t=P:problem=mixed beam	!	!	!	!	!	!	!	!	!	!	!
8D/	.	8d/L)	.	8f#/	.	8r	.	8D/	-na	8f#\	-na	8r	8r
!	!	!	!	!	!LO:HP:a:i:t=for.	!	!	!	!	!	!	!	!
!	!	!LO:TX:a:i:t=Tutti	!	!	!LO:DY:a	!	!	!LO:TX:a:i:t=Tutti	!	!LO:TX:a:i:t=Tutti	!	!	!
!	!	!	!	!LO:TX:t=P:problem=mixed beam	!	!	!	!	!	!	!	!	!
8d\J	.	8ff#\J	.	16aa\LL	f	8d\	ad	8A\	ad	8ff#\	ad	8dd\	8ff#\
.	.	.	.	16a/JJ	.	.	.	.	.	.	.	.	.
=4	=4	=4	=4	=4	=4	=4	=4	=4	=4	=4	=4	=4	=4
!	!	!	!	!LO:TX:t=P:problem=mixed beam	!	!	!	!	!	!	!	!	!
8c#\L	.	8ee\L	.	16aa\LL	.	8c#\	ad-	8A\	ad-	8ee\	ad-	4a/	4ee\
.	.	.	.	16a/	.	.	.	.	.	.	.	.	.
8B\	.	8dd\	.	16aa\	.	8B\	-ju-	8A\	-ju-	8dd\	-ju-	.	.
.	.	.	.	16a/JJ	.	.	.	.	.	.	.	.	.
!	!	!	!	!LO:TX:t=P:problem=mixed beam	!	!	!	!	!	!	!	!	!
8A\	.	8cc#\	.	16aa\LL	.	8A\	-van-	8A\	-van-	8cc#\	-van-	8r	8r
.	.	.	.	16a/	.	.	.	.	.	.	.	.	.
8G\J	.	8b\J	.	16aa\	.	8G\	-dum	8A\	-dum	8b\	-dum	8a/	8ee\
.	.	.	.	16a/JJ	.	.	.	.	.	.	.	.	.
4F#\	.	16a\LL	.	8aa\L	.	4F#\	me	4A\	me	4a\	me	4dd\	4ff#\
.	.	16cc#\	.	.	.	.	.	.	.	.	.	.	.
.	.	16dd\	.	16bb\L	.	.	.	.	.	.	.	.	.
.	.	16ee\JJ	.	16ccc#\JJ	.	.	.	.	.	.	.	.	.
8r	.	8ff#\L	.	8ddd\L	.	8r	.	8r	.	8r	.	8r	8r
8F#\	.	8ff#\J	.	8ddd\J	.	8F#\	fes-	8A\	fes-	8dd\	fes-	8dd\	8ff#\
!	!	!	!	!	!	!	!	!LO:LB:g=original	!	!LO:LB:g=original	!	!	!
=5	=5	=5	=5	=5	=5	=5	=5	=5	=5	=5	=5	=5	=5
4G\	.	4bb\	.	4ddd\	.	4G\	-ti-	4B\	-ti-	4dd\	-ti-	4dd\	4ff#\
4A\	.	4ee\	.	4ccc#\	.	4A\	.	4E/	.	4cc#Xt>\	.	4a/	4ee\
8D\L	.	16ff#\LL	.	8ddd\L	.	8D\	-na	8F#/	-na	8dd\	-na	8dd\L	8ff#\L
.	.	16ff#\	.	.	.	.	.	.	.	.	.	.	.
8D\	.	16ff#\	.	16aa\L	.	8D\	ad	8A\	ad	8ff#\	ad	8dd\	8ff#\
.	.	16ff#\JJ	.	16aa\JJ	.	.	.	.	.	.	.	.	.
8F#\	.	16ff#\LL	.	16aa\LL	.	8F#\	ad-	8A\	ad-	8ff#\	ad-	8dd\	8ff#\
.	.	16ff#\	.	16aa\	.	.	.	.	.	.	.	.	.
8A\J	.	16ee\	.	16ccc#\	.	8A\	-ju-	8c#\	-ju-	8ee\	-ju-	8a\J	8ee\J
.	.	16ee\JJ	.	16ccc#\JJ	.	.	.	.	.	.	.	.	.
!	!	!LO:LB:g=original	!	!LO:LB:g=original	!	!LO:LB:g=original	!	!	!	!	!	!	!
=6	=6	=6	=6	=6	=6	=6	=6	=6	=6	=6	=6	=6	=6
8d\L	.	16ff#\LL	.	16aa\LL	.	8d\	-van-	8A\	-van-	8ff#\	-van-	8dd\L	8ff#\L
.	.	16ff#\	.	16aa\	.	.	.	.	.	.	.	.	.
8A\	.	16ee\	.	16aa\	.	8A\	-dum	8c#\	-dum	8ee\	-dum	8a\	8ee\
.	.	16ee\JJ	.	16aa\JJ	.	.	.	.	.	.	.	.	.
8F#\	.	16ff#\LL	.	16aa\LL	.	8F#\	me	8d\	me	8ff#\	me	8dd\	8ff#\
.	.	16ff#\	.	16aa\	.	.	.	.	.	.	.	.	.
8D\J	.	16ff#\	.	16ddd\	.	8D\	fes-	8d\	fes-	8ff#\	fes-	8dd\J	8ff#\J
.	.	16ff#\JJ	.	16ddd\JJ	.	.	.	.	.	.	.	.	.
!LO:TX:a:t=P:problem=mixed beam	!	!	!	!	!	!	!	!	!	!	!	!	!
8A\L	.	8ee\L	.	8ccc#\L	.	8A\	-ti-	8c#\	-ti-	8ee\	-ti-	8a\L	8ee\L
8AA/	.	8ee\J	.	8ccc#\J	.	8AA/	-na	8c#\	-na	8ee\	-na	8a\	8ee\
8d\	.	16ff#\LL	.	16aa\LL	.	8d\	ad-	8A\	ad-	8ff#\	ad-	8dd\	8ff#\
.	.	16ff#\	.	16aa\	.	.	.	.	.	.	.	.	.
8A\J	.	16ee\	.	16ccc#\	.	8A\	-ju-	8c#\	-ju-	8ee\	-ju-	8a\J	8ee\J
.	.	16ee\JJ	.	16ccc#\JJ	.	.	.	.	.	.	.	.	.
!LO:LB:g=original	!	!	!	!	!	!	!	!	!	!	!	!	!LO:LB:g=original
=7	=7	=7	=7	=7	=7	=7	=7	=7	=7	=7	=7	=7	=7
8d\L	.	16ff#\LL	.	16aa\LL	.	8d\	-van-	8A\	-van-	8ff#\	-van-	8dd\L	8ff#\L
.	.	16ff#\	.	16aa\	.	.	.	.	.	.	.	.	.
8A\	.	16ee\	.	16aa\	.	8A\	-dum	8c#\	-dum	8ee\	-dum	8a\	8ee\
.	.	16ee\JJ	.	16aa\JJ	.	.	.	.	.	.	.	.	.
8F#\	.	16ff#\LL	.	16aa\LL	.	8F#\	me	8d\	me	8ff#\	me	8dd\	8ff#\
.	.	16ff#\	.	16aa\	.	.	.	.	.	.	.	.	.
8D\J	.	16ff#\	.	16ddd\	.	8D\	fes-	8d\	fes-	8ff#\	fes-	8dd\J	8ff#\J
.	.	16ff#\JJ	.	16ddd\JJ	.	.	.	.	.	.	.	.	.
!LO:TX:a:t=P:problem=mixed beam	!	!	!	!	!	!	!	!	!	!	!	!	!
!	!	!	!	!	!	!	!	!	!	!	!	!LO:LB:g=original	!
8A\L	.	8ee\L	.	8ccc#\L	.	8A\	-ti-	8c#\	-ti-	8ee\	-ti-	8a/L	8ee\L
8AA/J	.	8ee\J	.	8ccc#\J	.	8AA/	-na	8c#\	-na	8ee\	-na	8a/J	8ee\J
8r	.	8r	.	8r	.	8r	.	8r	.	8r	.	8r	8r
8A\	.	8ee\	.	8aa\	.	8A\	ad	8A\	ad	8ee\	ad	8a/	8ee\
=8	=8	=8	=8	=8	=8	=8	=8	=8	=8	=8	=8	=8	=8
8d\L	.	8ff#\L	.	4aa\	.	8d\L	ad-	4A\	ad-	4ff#\	ad-	4dd\	4ff#\
8c#\	.	8ee\	.	.	.	8c#\J	.	.	.	.	.	.	.
8B\	.	8dd\	.	4aa\	.	8B\L	-ju-	8d\L	-ju-	4ff#\	-ju-	4dd\	4ff#\
8A\J	.	8cc#\J	.	.	.	8A\J	.	8c#\J	.	.	.	.	.
!	!	!	!	!	!	!	!	!LO:LB:g=original	!	!LO:LB:g=original	!	!	!
8G#X\L	.	8b\L	.	8dd\L	.	8G#X\	-van-	8B\	-van-	8dd\	-van-	4ee\	4ee\
8E\	.	8b\	.	8dd\	.	8E\	-dum	8B\	-dum	8dd\	-dum	.	.
8A\	.	8a\	.	8cc#\	.	8A\	me	8A\	me	8cc#\	me	4r	4r
8D\J	.	8b\J	.	8dd\J	.	8D\	fes-	8B\	fes-	8dd\	fes-	.	.
=9	=9	=9	=9	=9	=9	=9	=9	=9	=9	=9	=9	=9	=9
*	*	*	*	*	*	*2\right	*	*	*	*	*	*	*
4E\	.	8a\L	.	8cc#\L	.	2E\	-ti-	4A\	-ti-	4cc#\	-ti-	4ee\	4ee\
.	.	8cc#\	.	8aa\	.	.	.	.	.	.	.	.	.
4EE/	.	8g#X\	.	8b\	.	.	.	4G#Xt>\	.	4b\	.	8ee\L	8ee\L
.	.	8cc#\J	.	8gg#X\J	.	.	.	.	.	.	.	8ee\J	8ee\J
4AA/	.	4cc#\	.	4aa\	.	4AA/	-na	4A\	-na	4cc#\	-na	4a/	4ee\
4r	.	4r	.	4r	.	4r	.	4r	.	4r	.	4r	4r
!	!	!	!	!	!	!LO:LB:g=original	!	!	!	!	!	!	!
=10	=10	=10	=10	=10	=10	=10	=10	=10	=10	=10	=10	=10	=10
4AA/	.	4cc#\	.	4aa\	.	4A\	Do-	4e\	Do-	4cc#\	Do-	4a/	4ee\
4E\	.	4b\	.	4gg#X\	.	4E\	-mi-	4e\	-mi-	4b\	-mi-	4ee\	4ee\
4AA/	.	4cc#\	.	4aa\	.	4AA/	-ne	4e\	-ne	4cc#\	-ne	4a/	4ee\
!	!	!	!	!	!	!	!	!LO:TX:a:i:t=Solo	!	!LO:TX:a:i:t=Solo	!	!	!
4r	.	8r	.	8r	.	4r	.	8r	.	8r	.	4r	4r
!	!	!	!	!	!LO:HP:a:i:t=pia	!	!	!	!	!	!	!	!
!	!	!	!	!	!LO:DY:a	!	!	!	!	!	!	!	!
.	.	8cc#\	.	8aa\	p	.	.	8c#\	ad	8aa\	ad	.	.
=11	=11	=11	=11	=11	=11	=11	=11	=11	=11	=11	=11	=11	=11
!	!LO:HP:a:i:t=pia:	!	!	!	!	!	!	!	!	!	!	!	!
!	!LO:DY:a	!	!	!	!	!	!	!	!	!	!	!	!
8E\L	p	(>4cc#\	.	(>4aa\	.	1r	.	(>4c#\	ad-	(>4aa\	ad-	1r	1r
8E\	.	.	.	.	.	.	.	.	.	.	.	.	.
8E\	.	8b\L)	.	8gg#X\L)	.	.	.	8B\)	.	8gg#X\)	.	.	.
8E\J	.	8dd\J	.	8ff#\J	.	.	.	8d\	-ju-	8ff#\	-ju-	.	.
!	!	!LO:LB:g=original	!	!LO:LB:g=original	!	!	!	!	!	!	!	!	!
8E\L	.	(>4dd\	.	(>4ff#\	.	.	.	(>4d\	-van-	(>4ff#\	-van-	.	.
8E\	.	.	.	.	.	.	.	.	.	.	.	.	.
8E\	.	8cc#\L)	.	8ee\L)	.	.	.	8c#\)	.	8ee\)	.	.	.
8E\J	.	8b\J	.	8dd\J	.	.	.	8B\	-dum	8dd\	-dum	.	.
=12	=12	=12	=12	=12	=12	=12	=12	=12	=12	=12	=12	=12	=12
!	!	!	!	!	!	!LO:TX:b:t=P:problem=w źródle brakuje pauzy ćwierćnutowej	!	!	!	!	!	!	!
8E\L	.	(>4b\	.	(>4dd\	.	2r	.	8B\	me	8dd\	me	2r	2r
8E\	.	.	.	.	.	.	.	8B\	fes-	8dd\	fes-	.	.
8E\	.	8a/L)	.	8cc#\L)	.	.	.	8A\L	-ti-	(>8cc#\L	-ti-	.	.
8E\J	.	8g#X/J	.	8b\J	.	.	.	8G#X\J	.	8b\J)	.	.	.
4AA/	.	4a/	.	4cc#\	.	4ryy	.	4A\	-na	4cc#\	-na	4r	4r
!LO:TX:a:i:t=Tutti	!	!	!	!	!	!	!	!LO:TX:a:i:t=Tutti	!	!LO:TX:a:i:t=Tutti	!	!	!
8r	.	8r	.	8r	.	8r	.	8r	.	8r	.	8r	8r
!	!	!	!	!	!LO:DY:a	!	!	!	!	!	!	!	!
!	!	!	!	!LO:TX:t=P:problem=mixed beam	!	!	!	!	!	!	!	!	!
!	!	!	!	!	!LO:HP:a:i:t=for.	!	!	!	!	!	!	!	!
8A\	.	8cc#\	.	16ee\LL	f	8A\	ad	8c#\	ad	8ee\	ad	8a/	8ee\
.	.	.	.	16e/JJ	.	.	.	.	.	.	.	.	.
!	!	!	!	!	!	!	!	!LO:LB:g=original	!	!LO:LB:g=original	!	!	!
=13	=13	=13	=13	=13	=13	=13	=13	=13	=13	=13	=13	=13	=13
!	!	!	!	!LO:TX:t=P:problem=mixed beam	!	!	!	!	!	!	!	!	!
8G#X\L	.	8b/L	.	16ee\LL	.	8G#X\	ad-	8B\	ad-	8ee\	ad-	8ee\L	8ee\L
.	.	.	.	16e/	.	.	.	.	.	.	.	.	.
8F#\	.	8a/	.	16ee\	.	8F#\	-ju-	8A\	-ju-	8ee\	-ju-	8ee\	8ee\
.	.	.	.	16e/JJ	.	.	.	.	.	.	.	.	.
!	!	!	!	!LO:TX:t=P:problem=mixed beam	!	!	!	!	!	!	!	!	!
8E\	.	8g#X/	.	16ee\LL	.	8E\	-van-	8G#X/	-van-	8ee\	-van-	8ee\	8ee\
.	.	.	.	16e/	.	.	.	.	.	.	.	.	.
8D\J	.	8f#/J	.	16ee\	.	8D\	-dum	8F#/	-dum	8ee\	-dum	8ee\J	8ee\J
.	.	.	.	16e/JJ	.	.	.	.	.	.	.	.	.
!LO:LB:g=original	!	!	!	!	!	!	!	!	!	!	!	!	!
4C#/	.	16e/LL	.	8ee\L	.	4C#/	me	4E/	me	4ee\	me	4a/	4ee\
.	.	16g#X/	.	.	.	.	.	.	.	.	.	.	.
.	.	16a/	.	16ff#\L	.	.	.	.	.	.	.	.	.
.	.	16b/JJ	.	16gg#X\JJ	.	.	.	.	.	.	.	.	.
8r	.	8cc#\L	.	8aa\L	.	8r	.	8r	.	8r	.	8r	8r
8AA/	.	8cc#\J	.	8aa\J	.	8AA/	fes-	8E/	fes-	8cc#\	fes-	8a/	8ee\
!	!	!	!	!	!	!	!	!	!	!	!	!	!LO:LB:g=original
=14	=14	=14	=14	=14	=14	=14	=14	=14	=14	=14	=14	=14	=14
4E\	.	4cc#\	.	4aa\	.	2E\	-ti-	4A\	-ti-	4cc#\	-ti-	4ee\	4ee\
4EE/	.	4b\	.	4gg#Xt>\	.	.	.	4G#X\	.	4bT>\	.	8ee\L	8ee\L
.	.	.	.	.	.	.	.	.	.	.	.	8ee\J	8ee\J
4AA/	.	4cc#\	.	4aa\	.	4AA/	-na	4A\	-na	4cc#\	-na	4a/	4ee\
4r	.	4r	.	4r	.	4r	.	8r	.	8r	.	4r	4r
.	.	.	.	.	.	.	.	8F#/	fes-	8a\	fes-	.	.
!	!	!	!	!	!	!	!	!	!	!	!	!LO:LB:g=original	!
=15	=15	=15	=15	=15	=15	=15	=15	=15	=15	=15	=15	=15	=15
4r	.	4r	.	4r	.	4r	.	4F#/	-ti-	4a\	-ti-	4r	4r
!LO:TX:a:i:t=Tutti	!	!	!	!	!	!	!	!	!	!	!	!	!
8r	.	8r	.	8r	.	8r	.	8Gn/	-na	8b\	-na	8r	8r
8D\	.	8ccn\	.	8aa\	.	8D\	fes-	8A/	fes-	8ccn\	fes-	8dd\	8dd\
.	.	8qqcc/	.	8qqaa/	.	.	.	8qqA/	.	8qqcc/	.	.	.
4G\	.	4b\	.	4ggn\	.	4G\	-ti-	4G/	-ti-	4b\	-ti-	4dd\	4dd\
8GG/	.	8b\	.	8gg\	.	8GG/	-na	8G/	-na	8b\	-na	8dd\	8dd\
8r	.	8r	.	8r	.	8r	.	8G#X/	fes-	8b\	fes-	8r	8r
=16	=16	=16	=16	=16	=16	=16	=16	=16	=16	=16	=16	=16	=16
4r	.	4r	.	4r	.	4r	.	4G/	-ti-	4b\	-ti-	4r	4r
8r	.	8r	.	8r	.	8r	.	8A/	-na	8cc#X\	-na	8r	8r
8E\	.	8dd\	.	8bb\	.	8E\	fes-	8B/	fes-	8dd\	fes-	8ee\	8ee\
.	.	.	.	.	.	.	.	8qqB/	.	.	.	.	.
!	!	!	!	!	!	!LO:LB:g=original	!	!	!	!	!	!	!
4A\	.	4cc#X\	.	4aa\	.	4A\	-ti-	4A/	-ti-	4cc#\	-ti-	4a/	4ee\
4AA/	.	4cc#\	.	4aa\	.	4AA/	-na	4A/	-na	4cc#\	-na	4a/	4ee\
!	!	!	!	!LO:LB:g=original	!	!	!	!	!	!	!	!	!
=17	=17	=17	=17	=17	=17	=17	=17	=17	=17	=17	=17	=17	=17
!	!	!LO:TX:b:t=P:problem=pierwsze pół taktu niewidoczne - zaklejone	!	!	!	!	!	!	!	!	!	!	!
4d\	.	2r	.	4ddd\	.	4d\	Do-	4A\	Do-	4ff#\	Do-	4dd\	4ff#\
4A\	.	.	.	4ccc#\	.	4A\	-mi-	4c#\	-mi-	4ee\	-mi-	4a/	4ee\
!	!	!LO:LB:g=original	!	!	!	!	!	!	!	!	!	!	!
4D\	.	4ff#\	.	4ddd\	.	4D\	-ne	4d\	-ne	4ff#\	-ne	4dd\	4ff#\
4r	.	8r	.	8r	.	4r	.	8r	.	8r	.	4r	4r
!	!	!	!LO:DY:a	!	!LO:DY:a	!	!	!LO:TX:a:i:t=Solo	!	!	!	!	!
!	!	!	!LO:HP:a:i:t=pia.	!	!LO:HP:a:i:t=pia	!	!	!	!	!	!	!	!
.	.	8dd\	p	8ff#\	p	.	.	8d\	ad	8ff#\	ad	.	.
!	!	!	!	!	!	!	!	!LO:LB:g=original	!	!LO:LB:g=original	!	!	!
=18	=18	=18	=18	=18	=18	=18	=18	=18	=18	=18	=18	=18	=18
!	!LO:HP:a:i:t=pia:	!	!	!	!	!	!	!	!	!	!	!	!
!	!LO:DY:a:rj	!	!	!	!	!	!	!	!	!	!	!	!
8AA/L	p	(>4dd\	.	(>4ff#\	.	1r	.	(>4d\	ad-	(>4ff#\	ad-	1r	1r
8AA/	.	.	.	.	.	.	.	.	.	.	.	.	.
8AA/	.	8cc#\L)	.	8ee\L)	.	.	.	8c#\)	.	8ee\)	.	.	.
8AA/J	.	8b\J|	.	8dd\J|	.	.	.	8B\	-ju-	8dd\	-ju-	.	.
8AA/L	.	(<4b/	.	(>4dd\	.	.	.	(>4B\	-van-	(>4dd\	-van-	.	.
8AA/	.	.	.	.	.	.	.	.	.	.	.	.	.
8AA/	.	8a/L)	.	8cc#\L)	.	.	.	8A\)	.	8cc#\)	.	.	.
8AA/J	.	8g/J|	.	8b\J|	.	.	.	8G/	-dum	8b\	-dum	.	.
=19	=19	=19	=19	=19	=19	=19	=19	=19	=19	=19	=19	=19	=19
8AA/L	.	(<4g/	.	(<4b/	.	2r	.	(<4G/	me	(>4b\	me	2r	2r
8AA/	.	.	.	.	.	.	.	.	.	.	.	.	.
8AA/	.	8f#/L)	.	8a/L)	.	.	.	8F#/)	.	8a\)	.	.	.
8AA/J	.	8e/J	.	8g/J|	.	.	.	8E/	fes-	8g/	fes-	.	.
8AA/L	.	4f#/	.	4g/	.	4r	.	4E/	-ti-	4g/	-ti-	4r	4r
8AA/J	.	.	.	.	.	.	.	.	.	.	.	.	.
!	!	!LO:TX:a:i:t=Tutti	!	!	!	!	!	!	!	!	!	!	!
!LO:TX:a:i:t=Tutti	!	!LO:TX:t=P:problem=mixed beam	!	!	!	!	!	!	!	!	!	!	!
8D\L	.	8d/L	.	8f#/	.	8r	.	8D/	-na	8f#/	-na	8r	8r
!	!	!	!	!LO:TX:t=P:problem=mixed beam	!LO:DY:a	!	!	!LO:TX:a:i:t=Tutti	!	!LO:TX:a:i:t=Tutti	!	!	!
!	!	!	!	!	!LO:HP:a:i:t=for.	!	!	!	!	!	!	!	!
8d\J	.	8ff#\J	.	16aa\LL	f	8d\	ad	8A\	ad	8ff#\	ad	8dd\	8ff#\
.	.	.	.	16a/JJ	.	.	.	.	.	.	.	.	.
=20	=20	=20	=20	=20	=20	=20	=20	=20	=20	=20	=20	=20	=20
!	!	!	!	!LO:TX:t=P:problem=mixed beam	!	!	!	!	!	!	!	!	!
8c#\L	.	8ee\L	.	16aa\LL	.	8c#\	ad-	8A\	ad-	8ee\	ad-	8a\L	8ee\L
.	.	.	.	16a/	.	.	.	.	.	.	.	.	.
8d\	.	8ff#\	.	16aa\	.	8d\	-ju-	8A\	-ju-	8ff#\	-ju-	8dd\	8ff#\
.	.	.	.	16a/JJ	.	.	.	.	.	.	.	.	.
!	!	!	!	!LO:TX:t=P:problem=mixed beam	!	!	!	!	!	!	!	!	!
8A\	.	8ee\	.	16aa\LL	.	8A\	-van-	8A\	-van-	8ee\	-van-	8a\	8ee\
.	.	.	.	16a/	.	.	.	.	.	.	.	.	.
8d\J	.	8ff#\J	.	16aa\	.	8d\	-dum	8A\	-dum	8ff#\	-dum	8dd\J	8ff#\J
.	.	.	.	16a/JJ	.	.	.	.	.	.	.	.	.
!	!	!	!	!	!	!	!	!	!	!LO:SIC:s=4ee	!	!	!
!LO:LB:g=original	!	!	!	!	!	!	!	!	!	!	!	!	!
!	!	!	!	!LO:TX:t=P:problem=mixed beam	!	!	!	!	!	!LO:N:vis=4.	!	!	!
4A\	.	16ee\LL	.	16aa\LL	.	4A\	me	4A\	me	4ee\	me	4a\	4ee\
.	.	16a\	.	16a/	.	.	.	.	.	.	.	.	.
.	.	16cc#\	.	16cc#/	.	.	.	.	.	.	.	.	.
.	.	16ee\JJ	.	16ee/JJ	.	.	.	.	.	.	.	.	.
!	!	!	!	!LO:TX:t=P:problem=mixed beam	!	!	!	!	!	!	!	!	!
8r	.	8aa\L	.	8aa\L	.	8r	.	8r	.	8r	.	8r	8r
8d\	.	8ff#\J	.	16aa\L	.	8d\	ad	8A\	ad	8ff#\	ad	8dd\	8ff#\
.	.	.	.	16a/JJ	.	.	.	.	.	.	.	.	.
!	!	!	!	!	!	!	!	!	!	!	!	!	!LO:LB:g=original
=21	=21	=21	=21	=21	=21	=21	=21	=21	=21	=21	=21	=21	=21
!	!	!	!	!LO:TX:t=P:problem=mixed beam	!	!	!	!	!	!	!	!LO:TX:b:t=P:problem=na nucie plama, nad nutą litera g	!
!	!	!	!	!	!	!	!	!	!	!	!	!LO:TX:a:t=g	!
8c#\L	.	8ee\L	.	16aa\LL	.	8c#\	ad-	8A\	ad-	8ee\	ad-	8a\L	8ee\L
.	.	.	.	16a/	.	.	.	.	.	.	.	.	.
8d\	.	8ff#\	.	16aa\	.	8d\	-ju-	8A\	-ju-	8ff#\	-ju-	8dd\	8ff#\
.	.	.	.	16a/JJ	.	.	.	.	.	.	.	.	.
!	!	!	!	!LO:TX:t=P:problem=mixed beam	!	!	!	!	!	!	!	!	!
8A\	.	8ee\	.	16aa\LL	.	8A\	-van-	8A\	-van-	8ee\	-van-	8a\	8ee\
.	.	.	.	16a/	.	.	.	.	.	.	.	.	.
8d\J	.	8ff#\J	.	16aa\	.	8d\	-dum	8A\	-dum	8ff#\	-dum	8dd\J	8ff#\J
.	.	.	.	16a/JJ	.	.	.	.	.	.	.	.	.
!	!	!	!	!LO:LB:g=original	!	!	!	!	!	!	!	!	!
!	!	!	!	!LO:TX:t=P:problem=mixed beam	!	!	!	!	!	!	!	!	!
4A\	.	16ee\LL	.	16aa\LL	.	4A\	me	4A\	me	4ee\	me	4a\	4ee\
.	.	16a\	.	16a/	.	.	.	.	.	.	.	.	.
.	.	16cc#\	.	16cc#/	.	.	.	.	.	.	.	.	.
.	.	16ee\JJ	.	16ee/JJ	.	.	.	.	.	.	.	.	.
8r	.	8aa\L	.	8aa\L	.	8r	.	8r	.	8r	.	8r	8r
8A\	.	8cc#\J	.	8aa\J	.	8A\	ad	8c#\	ad	8aa\	ad	8ee\	8aa\
!	!	!	!	!	!	!	!	!	!	!LO:LB:g=original	!	!LO:LB:g=original	!
=22	=22	=22	=22	=22	=22	=22	=22	=22	=22	=22	=22	=22	=22
4B\	.	4dd\	.	4aa\	.	4B\	ad-	4d\	ad-	4aa\	ad-	4dd\	4aa\
4c#\	.	4ee\	.	4gg\	.	4c#\	-ju-	4e\	-ju-	4gg\	-ju-	4ee\	4gg\
!	!	!	!	!	!	!LO:LB:g=original	!	!LO:LB:g=original	!	!	!	!	!
8d\L	.	8a/L	.	8ff#\L	.	8d\	-van-	8A/	-van-	8ff#\	-van-	4dd\	4ff#\
8A\	.	8g/	.	8ee\	.	8A\	-dum	8G/	-dum	8ee\	-dum	.	.
8F#\	.	8f#/	.	8dd\	.	8F#\	me	8F#/	me	8dd\	me	8r	8r
8G\J	.	8b/J	.	8ee\J	.	8G\	fes-	8B/	fes-	8ee\	fes-	8ee\	8gg\
=23	=23	=23	=23	=23	=23	=23	=23	=23	=23	=23	=23	=23	=23
4A\	.	4f#/	.	4dd\	.	4A\	-ti-	4F#/	-ti-	4dd\	-ti-	4dd\	4ff#\
!	!	!	!	!LO:TX:b:t=P:problem=po nucie skreślone kilka nut	!	!	!	!	!	!	!	!	!
4AA/	.	4g/	.	4eeT>\	.	4AA/	.	4GT>/	.	4eeT>\	.	4a/	4ee\
!LO:TX:a:t=P:problem=mixed beam	!	!LO:TX:t=P:problem=mixed beam	!	!	!	!	!	!	!	!	!	!	!
8D\L	.	8f#/L	.	8dd\L	.	8D\	-na	8F#/	-na	8dd\	-na	8dd\L	8ff#\L
8F#\	.	8ff#\	.	8ddd\	.	8F#\	fes-	8A\	fes-	8ff#\	fes-	8dd\	8ff#\
!	!	!	!	!	!	!LO:TX:t=P:problem=mixed beam	!	!	!	!	!	!	!
8A\	.	8cc#\J	.	8ee\	.	8A\L	-ti-	4c#\	-ti-	4ee\	-ti-	8a\	8ee\
!	!	!LO:TX:b:t=P:problem=końcówka partii niewidoczna - zaklejona	!	!	!	!	!	!	!	!	!	!	!
8AA/J	.	8r	.	8ccc#\J	.	8AA/J	.	.	.	.	.	8a\J	8ee\J
=24	=24	=24	=24	=24	=24	=24	=24	=24	=24	=24	=24	=24	=24
4D\	.	1r	.	4ddd\	.	4D\	-na.	4d\	-na.	4ff#\	-na.	4dd\	4ff#\
4r	.	.	.	4r	.	4r	.	4r	.	4r	.	4r	4r
2r	.	.	.	2r	.	2r	.	2r	.	2r	.	2r	2r
!LO:LB:g=original	!LO:LB:g=original	!	!LO:LB:g=original	!	!LO:LB:g=original	!	!	!LO:LB:g=original	!	!LO:LB:g=original	!	!LO:LB:g=original	!LO:LB:g=original
=25||;>	=25||	=25||	=25||	=25||;>	=25||	=25||;>	=25||	=25||;>	=25||	=25||;>	=25||	=25||;>	=25||;>
*M3/4	*	*M3/4	*	*M3/4	*	*M3/4	*	*M3/4	*	*M3/4	*	*M3/4	*M3/4
*k[f#]	*	*k[f#]	*	*k[f#]	*	*k[f#]	*	*k[f#]	*	*k[f#]	*	*k[f#]	*k[f#]
*G:	*	*G:	*	*G:	*	*G:	*	*G:	*	*G:	*	*G:	*G:
*	*	*	*	*	*	*	*	*	*	*2\right	*	*	*
!LO:TX:a:i:t=andante	!LO:HP:a:i:t=piano.	!LO:TX:a:i:t=andante	!	!LO:TX:a:i:t=andante	!	!LO:TX:b:i:t=Gloria Patri Tacet	!	!LO:TX:b:i:t=Gloria Patri Tacet	!	!	!	!LO:TX:b:i:t=Gloria Patri Tacet	!LO:TX:b:i:t=Gloria Patri Tacet
!LO:TX:b:i:t=Gloria Patri.	!LO:DY:a	!LO:TX:b:i:t=Gloria Patri.	!	!LO:TX:a:i:t=ia.	!	!LO:TX:b:t=P:problem=napis "Gloria Patri Tacet" na pięciolinii za podwójną kreską taktową	!	!LO:TX:b:t=P:problem=napis "Gloria Patri Tacet" na pięciolinii za podwójną kreską taktową	!	!LO:TX:a:i:t=andante	!	!LO:TX:b:t=P:problem=napis "Gloria Patri Tacet" na pięciolinii za podwójną kreską taktową	!LO:TX:b:t=P:problem=napis "Gloria Patri Tacet" na pięciolinii za podwójną kreską taktową
!	!	!	!	!LO:TX:b:i:t=Gloria Patri.	!	!	!	!	!	!	!	!	!
8G\L	p	8b\L	.	8dd\L	.	2.ryy	.	2.ryy	.	2dd\	Glo-	2.ryy	2.ryy
8G\	.	8b\	.	8dd\	.	.	.	.	.	.	.	.	.
8G\	.	8b\	.	8dd\	.	.	.	.	.	.	.	.	.
8G\	.	8b\J	.	8dd\J	.	.	.	.	.	.	.	.	.
8G\	.	8cc\L	.	8ee\L	.	.	.	.	.	8ee\	-ri-	.	.
!	!	!	!	!LO:TX:a:i:t=Solo	!	!	!	!	!	!LO:TX:a:i:t=Solo	!	!	!
8G\J	.	(>16b\L	.	(>16dd\L	.	.	.	.	.	(>16dd\LL	-a	.	.
.	.	16a\JJ)	.	16cc\JJ)	.	.	.	.	.	16cc\JJ)	.	.	.
=26	=26	=26	=26	=26	=26	=26	=26	=26	=26	=26	=26	=26	=26
!	!	!	!LO:DY:a:rj	!	!	!	!	!	!	!	!	!	!
!	!	!	!LO:HP:a:i:t=pia	!	!	!	!	!	!	!	!	!	!
8G\L	.	8b\L	p	8dd\L	.	2.ryy	.	2.ryy	.	(>8dd\L	Pa-	2.ryy	2.ryy
8G\	.	8b\	.	8dd\	.	.	.	.	.	8b\J)	.	.	.
.	.	.	.	.	.	.	.	.	.	8qqa/	.	.	.
8G\	.	8b\	.	8dd\	.	.	.	.	.	4g\	-tri	.	.
8G\	.	8b\J	.	8dd\J	.	.	.	.	.	.	.	.	.
8G\	.	8cc\L	.	8ee\L	.	.	.	.	.	8ee\	glo-	.	.
8G\J	.	(>16b\L	.	(>16dd\L	.	.	.	.	.	16dd\	-ri-	.	.
.	.	16a\JJ)	.	16cc\JJ)	.	.	.	.	.	16cc\	-a	.	.
=27	=27	=27	=27	=27	=27	=27	=27	=27	=27	=27	=27	=27	=27
8G\L	.	8b\L	.	8dd\L	.	2.ryy	.	2.ryy	.	8dd\	fi-	2.ryy	2.ryy
8G\	.	8b\	.	8dd\	.	.	.	.	.	8b\	-li-	.	.
.	.	.	.	.	.	.	.	.	.	8qqa/	.	.	.
8G\	.	8b\	.	8dd\	.	.	.	.	.	4g\	-o	.	.
8G\	.	8b\	.	8dd\J	.	.	.	.	.	.	.	.	.
8B\	.	8dd\	.	4gg\	.	.	.	.	.	4gg\	et	.	.
8c\J	.	8ee\J	.	.	.	.	.	.	.	.	.	.	.
=28	=28	=28	=28	=28	=28	=28	=28	=28	=28	=28	=28	=28	=28
4d\	.	4a\	.	4gg\	.	2.ryy	.	2.ryy	.	4gg\	Spi-	2.ryy	2.ryy
4D\	.	8a\L	.	(>8ff#\L	.	.	.	.	.	8ff#\L	-ri-	.	.
.	.	8cc\	.	8ee\)	.	.	.	.	.	8ee\J	.	.	.
4D\	.	8b\	.	(>8dd\	.	.	.	.	.	8dd\	-tu-	.	.
.	.	8a\J	.	8cc\J)	.	.	.	.	.	8cc\	-i	.	.
=29	=29	=29	=29	=29	=29	=29	=29	=29	=29	=29	=29	=29	=29
4D\	.	4aT>/	.	4ccT>\	.	2.ryy	.	2.ryy	.	4ccT>\	Sanc-	2.ryy	2.ryy
!	!LO:DY:a	!	!	!	!	!	!	!	!	!	!	!	!
!LO:TX:a:t=P:problem=mixed beam	!LO:HP:a:i:t=for	!	!	!	!	!	!	!	!	!	!	!	!
8GG/L	f	8g/	.	8b\	.	.	.	.	.	4b\	-to	.	.
!	!	!	!LO:DY:a	!	!LO:DY:a	!	!	!	!	!	!	!	!
!	!	!	!LO:HP:a:i:t=for	!	!LO:HP:a:i:t=for.	!	!	!	!	!	!	!	!
8G\	.	4b\	f	4dd\	f	.	.	.	.	.	.	.	.
8G\	.	.	.	.	.	.	.	.	.	4r	.	.	.
8G\J	.	8dd\	.	8gg\	.	.	.	.	.	.	.	.	.
=30	=30	=30	=30	=30	=30	=30	=30	=30	=30	=30	=30	=30	=30
!	!	!	!	!	!	!	!	!	!	!LO:N:vis=00	!	!	!
8G\L	.	8gg\	.	8bb\	.	2.ryy	.	2.ryy	.	0.r	.	2.ryy	2.ryy
8G\	.	4b\	.	4dd\	.	.	.	.	.	.	.	.	.
8G\	.	.	.	.	.	.	.	.	.	.	.	.	.
8G\	.	4cc\	.	4ee\	.	.	.	.	.	.	.	.	.
8G\	.	.	.	.	.	.	.	.	.	.	.	.	.
8G\J	.	8b\	.	8dd\	.	.	.	.	.	.	.	.	.
=31	=31	=31	=31	=31	=31	=31	=31	=31	=31	=31	=31	=31	=31
.	.	8qqb/	.	8qqdd/	.	.	.	.	.	.	.	.	.
8D\L	.	4a\	.	4cc\	.	2.ryy	.	2.ryy	.	.	.	2.ryy	2.ryy
8D\	.	.	.	.	.	.	.	.	.	.	.	.	.
8D\	.	8r	.	8r	.	.	.	.	.	.	.	.	.
8D\	.	4a\	.	4cc\	.	.	.	.	.	.	.	.	.
8D\	.	.	.	.	.	.	.	.	.	.	.	.	.
8D\J	.	8cc\	.	8ff#\	.	.	.	.	.	.	.	.	.
=32	=32	=32	=32	=32	=32	=32	=32	=32	=32	=32	=32	=32	=32
8D\L	.	8ff#\	.	8aa\	.	2.ryy	.	2.ryy	.	.	.	2.ryy	2.ryy
8D\	.	4a\	.	4cc\	.	.	.	.	.	.	.	.	.
8D\	.	.	.	.	.	.	.	.	.	.	.	.	.
8D\	.	4b\	.	4dd\	.	.	.	.	.	.	.	.	.
8D\	.	.	.	.	.	.	.	.	.	.	.	.	.
8D\J	.	8a\	.	8cc\	.	.	.	.	.	.	.	.	.
!	!	!	!	!LO:LB:g=original	!	!	!	!	!	!	!	!	!
=33	=33	=33	=33	=33	=33	=33	=33	=33	=33	=33	=33	=33	=33
4GG/	.	8g/	.	8b\L	.	2.ryy	.	2.ryy	.	.	.	2.ryy	2.ryy
!	!	!LO:TX:b:t=P:problem=brzeg karty urwany, nuty niewidoczne	!	!	!	!	!	!	!	!	!	!	!
.	.	8r	.	(>8b\	.	.	.	.	.	.	.	.	.
4GG/	.	4r	.	8cc\	.	.	.	.	.	.	.	.	.
.	.	.	.	8b\)	.	.	.	.	.	.	.	.	.
!LO:TX:b:t=P:problem=brzeg karty urwany, nuty niewidoczne	!	!	!	!	!	!	!	!	!	!	!	!	!
4r	.	4r	.	(>8ee\	.	.	.	.	.	.	.	.	.
.	.	.	.	8dd\J)	.	.	.	.	.	.	.	.	.
!LO:LB:g=original	!LO:LB:g=original	!	!	!	!	!	!	!	!	!	!	!	!
=34	=34	=34	=34	=34	=34	=34	=34	=34	=34	=34	=34	=34	=34
!	!LO:HP:a:i:t=pia	!	!	!	!	!	!	!	!	!	!	!	!
!	!LO:DY:a	!	!	!	!	!	!	!	!	!	!	!	!
!	!	!	!	!	!	!	!	!	!	!LO:N:vis=0	!	!	!
4GG/	p	8r	.	8r	.	2.ryy	.	2.ryy	.	1.r	.	2.ryy	2.ryy
!	!	!	!LO:DY:a:rj	!	!LO:DY:a:rj	!	!	!	!	!	!	!	!
!	!	!	!LO:HP:a:i:t=pia	!	!LO:HP:a:i:t=pia	!	!	!	!	!	!	!	!
.	.	(<8g/L	p	(>8b\L	p	.	.	.	.	.	.	.	.
4GG/	.	8a/	.	8cc\	.	.	.	.	.	.	.	.	.
.	.	8g/)	.	8b\)	.	.	.	.	.	.	.	.	.
4GG/	.	(<8cc#/	.	(>8ee\	.	.	.	.	.	.	.	.	.
.	.	8b/J)	.	8dd\J)	.	.	.	.	.	.	.	.	.
=35	=35	=35	=35	=35	=35	=35	=35	=35	=35	=35	=35	=35	=35
!LO:TX:a:t=P:problem=złe wyświetlnie	!	!	!	!	!LO:DY:a	!	!	!	!	!	!	!	!
!	!	!	!	!	!LO:HP:a:i:t=for	!	!	!	!	!	!	!	!
.	.	.	.	8qqdd/	f	.	.	.	.	.	.	.	.
!	!LO:HP:a:i:t=for.	!LO:HP:a:i:t=for	!	!	!	!	!	!	!	!	!	!	!
!	!LO:DY:a	!	!LO:DY:a	!	!	!	!	!	!	!	!	!	!
4C/	f	4e/	f	8cc\L	.	2.ryy	.	2.ryy	.	.	.	2.ryy	2.ryy
.	.	.	.	(>16b\L	.	.	.	.	.	.	.	.	.
.	.	.	.	16a\JJ)	.	.	.	.	.	.	.	.	.
4D/	.	4B/	.	4g/	.	.	.	.	.	.	.	.	.
4DD/	.	4c/	.	4aT>/	.	.	.	.	.	.	.	.	.
=36	=36	=36	=36	=36	=36	=36	=36	=36	=36	=36	=36	=36	=36
!	!LO:HP:a:i:t=pia.	!	!LO:DY:a	!	!	!	!	!	!	!	!	!	!
!LO:TX:a:t=P:problem=mixed beam	!LO:DY:a	!	!	!LO:TX:t=P:problem=mixed beam	!	!	!	!	!	!	!	!	!
!	!	!LO:TX:t=P:problem=mixed beam	!LO:HP:a:i:t=pia.	!	!LO:HP:a:i:t=pia.	!	!	!	!	!	!	!	!
8GG/L	p	8B/L	p	8g/L	p	2.ryy	.	2.ryy	.	2dd\	Glo-	2.ryy	2.ryy
8G\	.	8b\	.	8dd\	.	.	.	.	.	.	.	.	.
8G\	.	8b\	.	8dd\	.	.	.	.	.	.	.	.	.
8G\	.	8b\J	.	8dd\J	.	.	.	.	.	.	.	.	.
8G\	.	8cc\L	.	8ee\L	.	.	.	.	.	8ee\	-ri-	.	.
8G\J	.	(>16b\L	.	(>16dd\L	.	.	.	.	.	(>16dd\LL	-a	.	.
.	.	16a\JJ)	.	16cc\JJ)	.	.	.	.	.	16cc\JJ)	.	.	.
!	!	!	!	!	!	!	!	!	!	!LO:LB:g=original	!	!	!
=37	=37	=37	=37	=37	=37	=37	=37	=37	=37	=37	=37	=37	=37
8G\L	.	8b\L	.	8dd\L	.	2.ryy	.	2.ryy	.	8dd\L	Pa-	2.ryy	2.ryy
8G\	.	8b\	.	8dd\	.	.	.	.	.	8b\J	.	.	.
.	.	.	.	.	.	.	.	.	.	8qqa/	.	.	.
8G\	.	8b\	.	8dd\	.	.	.	.	.	4g\	-tri	.	.
8G\	.	8b\J	.	8dd\J	.	.	.	.	.	.	.	.	.
8G\	.	8cc\L	.	8ee\L	.	.	.	.	.	8ee\	glo-	.	.
8G\J	.	(>16b\L	.	(>16dd\L	.	.	.	.	.	16dd\	-ri-	.	.
.	.	16a\JJ)	.	16cc\JJ)	.	.	.	.	.	16cc\	-a	.	.
=38	=38	=38	=38	=38	=38	=38	=38	=38	=38	=38	=38	=38	=38
8G\L	.	8b\L	.	8dd\L	.	2.ryy	.	2.ryy	.	8dd\	fi-	2.ryy	2.ryy
8G\	.	8b\	.	8dd\	.	.	.	.	.	8b\	-li-	.	.
.	.	.	.	.	.	.	.	.	.	8qqa/	.	.	.
8G\	.	8b\	.	8dd\	.	.	.	.	.	4g\	-o	.	.
8G\	.	8b\	.	8dd\J	.	.	.	.	.	.	.	.	.
8B\	.	8dd\	.	4gg\	.	.	.	.	.	4gg\	et	.	.
8c\J	.	8ee\J	.	.	.	.	.	.	.	.	.	.	.
=39	=39	=39	=39	=39	=39	=39	=39	=39	=39	=39	=39	=39	=39
4d\	.	4a\	.	4gg\	.	2.ryy	.	2.ryy	.	4gg\	Spi-	2.ryy	2.ryy
4D\	.	(>8a\L	.	(>8ff#\L	.	.	.	.	.	8ff#\L	-ri-	.	.
.	.	8cc\)	.	8ee\)	.	.	.	.	.	8ee\J	.	.	.
4D\	.	(>8b\	.	(>8dd\	.	.	.	.	.	8dd\	-tu-	.	.
.	.	8a\J)	.	8cc\J)	.	.	.	.	.	8cc\	-i	.	.
=40	=40	=40	=40	=40	=40	=40	=40	=40	=40	=40	=40	=40	=40
4D\	.	4a/	.	4ccT>\	.	2.ryy	.	2.ryy	.	4ccT>\	Sanc-	2.ryy	2.ryy
4G\	.	4g/	.	4b\	.	.	.	.	.	4b\	-to	.	.
4GG/	.	4d/	.	[>4b\	.	.	.	.	.	[>4b\	glo-	.	.
!	!	!	!	!LO:LB:g=original	!	!	!	!	!	!	!	!	!
=41	=41	=41	=41	=41	=41	=41	=41	=41	=41	=41	=41	=41	=41
8D\L	.	(<4g/	.	4b\]	.	2.ryy	.	2.ryy	.	4b\]	.	2.ryy	2.ryy
8D\	.	.	.	.	.	.	.	.	.	.	.	.	.
8D\	.	4f#/)	.	4a\	.	.	.	.	.	4a\	-ri-	.	.
8D\	.	.	.	.	.	.	.	.	.	.	.	.	.
8D\	.	4a/	.	[>4cc\	.	.	.	.	.	4cc\	-a	.	.
8D\J	.	.	.	.	.	.	.	.	.	.	.	.	.
=42	=42	=42	=42	=42	=42	=42	=42	=42	=42	=42	=42	=42	=42
8GG/L	.	4aT>/	.	4ccT>\]	.	2.ryy	.	2.ryy	.	4ccT>\	Pa-	2.ryy	2.ryy
8GG/	.	.	.	.	.	.	.	.	.	.	.	.	.
8GG/	.	4g/	.	4b\	.	.	.	.	.	4b\	-tri	.	.
8GG/	.	.	.	.	.	.	.	.	.	.	.	.	.
8GG/	.	4b/	.	[>4gg\	.	.	.	.	.	[>4gg\	glo-	.	.
8GG/J	.	.	.	.	.	.	.	.	.	.	.	.	.
=43	=43	=43	=43	=43	=43	=43	=43	=43	=43	=43	=43	=43	=43
8D\L	.	(<4b/	.	4gg\]	.	2.ryy	.	2.ryy	.	4gg\]	.	2.ryy	2.ryy
8D\	.	.	.	.	.	.	.	.	.	.	.	.	.
8D\	.	4a/)	.	4ff#\	.	.	.	.	.	4ff#\	-ri-	.	.
8D\	.	.	.	.	.	.	.	.	.	.	.	.	.
!	!	!LO:TX:b:t=P:problem=brzeg karty urwany, nuty niewidoczne	!	!	!	!	!	!	!	!	!	!	!
8D\	.	4r	.	(>8aa\L	.	.	.	.	.	8aa\L	-a	.	.
8D\J	.	.	.	8cc\J)	.	.	.	.	.	8cc\J	.	.	.
!LO:LB:g=original	!LO:LB:g=original	!	!	!	!	!	!	!	!	!LO:LB:g=original	!	!	!
=44	=44	=44	=44	=44	=44	=44	=44	=44	=44	=44	=44	=44	=44
8D\L	.	4aT>/	.	4ccT>\	.	2.ryy	.	2.ryy	.	8cc\	fi-	2.ryy	2.ryy
8D\J	.	.	.	.	.	.	.	.	.	8cc\	-li-	.	.
4GG/	.	4g/	.	4b\	.	.	.	.	.	4b\	-o	.	.
4G\	.	4b/	.	[>4dd\	.	.	.	.	.	[>4dd\	et	.	.
=45	=45	=45	=45	=45	=45	=45	=45	=45	=45	=45	=45	=45	=45
4G\	.	4b\	.	4dd\]	.	2.ryy	.	2.ryy	.	8dd\]	.	2.ryy	2.ryy
.	.	.	.	.	.	.	.	.	.	8gg\	Spi-	.	.
4F#\	.	8cc\L	.	(>8ee\L	.	.	.	.	.	8ee\L	-ri-	.	.
.	.	8b\	.	8dd\)	.	.	.	.	.	8dd\J	.	.	.
4G\	.	8a\	.	(>8cc\	.	.	.	.	.	8cc\	-tu-	.	.
.	.	8g\J	.	8b\J)	.	.	.	.	.	8b\	-i	.	.
=46	=46	=46	=46	=46	=46	=46	=46	=46	=46	=46	=46	=46	=46
4d\	.	(<4gT>/	.	4bt>\	.	2.ryy	.	2.ryy	.	4bt>\	Sanc-	2.ryy	2.ryy
8D\L	.	8f#/L)	.	8a\L	.	.	.	.	.	4a\	-to	.	.
8F#\	.	8d/	.	8a\	.	.	.	.	.	.	.	.	.
8F#\	.	8d/	.	8a\	.	.	.	.	.	8a\	et	.	.
8F#\J	.	8d/J	.	8a\J	.	.	.	.	.	8a\	Spi-	.	.
=47	=47	=47	=47	=47	=47	=47	=47	=47	=47	=47	=47	=47	=47
8G\L	.	8d/L	.	8b\L	.	2.ryy	.	2.ryy	.	2b\	-ri-	2.ryy	2.ryy
8G\	.	8d/	.	8b\	.	.	.	.	.	.	.	.	.
8G\	.	8e/	.	8b\	.	.	.	.	.	.	.	.	.
8G\	.	8e/	.	8b\	.	.	.	.	.	.	.	.	.
8G\	.	8e/	.	8b\	.	.	.	.	.	8b\	-tu-	.	.
8G\J	.	8e/J	.	8b\J	.	.	.	.	.	8dd\	-i	.	.
=48	=48	=48	=48	=48	=48	=48	=48	=48	=48	=48	=48	=48	=48
.	.	.	.	.	.	.	.	.	.	8qqdd/	.	.	.
8A\L	.	8e/L	.	8cc#X\L	.	2.ryy	.	2.ryy	.	2cc#X\	Sanc-	2.ryy	2.ryy
8A\	.	8e/	.	8cc#\	.	.	.	.	.	.	.	.	.
8A\	.	8f#/	.	8cc#\	.	.	.	.	.	.	.	.	.
8A\	.	8f#/	.	8cc#\	.	.	.	.	.	.	.	.	.
8A\	.	8f#/	.	8cc#\	.	.	.	.	.	(>8cc#\L	.	.	.
8A\J	.	8f#/J	.	8cc#\J	.	.	.	.	.	8ee\J)	.	.	.
=49	=49	=49	=49	=49	=49	=49	=49	=49	=49	=49	=49	=49	=49
.	.	.	.	.	.	.	.	.	.	8qqee/	.	.	.
8B\L	.	8f#/L	.	8dd\L	.	2.ryy	.	2.ryy	.	2dd\	.	2.ryy	2.ryy
8B\	.	8f#/	.	8dd\	.	.	.	.	.	.	.	.	.
8B\	.	8g/	.	8dd\	.	.	.	.	.	.	.	.	.
8B\	.	8g/	.	8dd\	.	.	.	.	.	.	.	.	.
8B\	.	8g/	.	8dd\	.	.	.	.	.	(>8dd\L	.	.	.
8B\J	.	8g/J	.	8dd\J	.	.	.	.	.	8ff#\J)	.	.	.
=50	=50	=50	=50	=50	=50	=50	=50	=50	=50	=50	=50	=50	=50
.	.	.	.	.	.	.	.	.	.	8qqff#/	.	.	.
8c#X\L	.	8g/L	.	8ee\L	.	2.ryy	.	2.ryy	.	2ee\	.	2.ryy	2.ryy
8c#\	.	8g/	.	8ee\	.	.	.	.	.	.	.	.	.
8c#\	.	8a/	.	8ee\	.	.	.	.	.	.	.	.	.
8c#\	.	8a/	.	8ee\	.	.	.	.	.	.	.	.	.
8c#\	.	8a/	.	8ee\	.	.	.	.	.	8ee\L	.	.	.
8c#\J	.	8a/J	.	8ee\J	.	.	.	.	.	8gg\J	.	.	.
!	!	!	!	!	!	!	!	!	!	!LO:LB:g=original	!	!	!
!	!	!	!	!LO:LB:g=original	!	!	!	!	!	!	!	!	!
=51	=51	=51	=51	=51	=51	=51	=51	=51	=51	=51	=51	=51	=51
.	.	.	.	.	.	.	.	.	.	8qqgg/	.	.	.
4d\	.	4a\	.	4ff#\	.	2.ryy	.	2.ryy	.	4ff#\	.	2.ryy	2.ryy
4A\	.	4cc\	.	4ee\	.	.	.	.	.	4ee\	-to	.	.
4C#X/	.	4ee\	.	4gg\	.	.	.	.	.	4gg\	Spi-	.	.
=52	=52	=52	=52	=52	=52	=52	=52	=52	=52	=52	=52	=52	=52
.	.	.	.	8qgg/	.	.	.	.	.	8qqgg/	.	.	.
8D\L	.	8a/L	.	8ff#\L	.	2.ryy	.	2.ryy	.	8ff#\	-ri-	2.ryy	2.ryy
8G\J	.	8b/J	.	(>16ee\L	.	.	.	.	.	16ee\	-tu-	.	.
.	.	.	.	16dd\JJ)	.	.	.	.	.	16dd\	-i	.	.
.	.	8qqf#/	.	8qqdd/	.	.	.	.	.	8qqdd/	.	.	.
*	*	*	*	*2\right	*	*	*	*	*	*	*	*	*
4A\	.	2e/	.	2cc#X\	.	.	.	.	.	2cc#X\	Sanc-	.	.
4AA/	.	.	.	.	.	.	.	.	.	.	.	.	.
!LO:LB:g=original	!	!	!	!	!	!	!	!	!	!	!	!	!
=53	=53	=53	=53	=53	=53	=53	=53	=53	=53	=53	=53	=53	=53
!	!	!	!	!	!	!	!	!	!	!LO:SIC:s=8qqcc#	!	!	!
!	!	!	!	!LO:SIC:s=8qqcc#	!	!	!	!	!	!	!	!	!
.	.	8qqe/	.	8qqcc/	.	.	.	.	.	8qqcc/	.	.	.
!	!LO:HP:a:i:t=for	!	!	!	!	!	!	!	!	!	!	!	!
!	!LO:DY:a	!	!	!	!	!	!	!	!	!	!	!	!
8D\L	f	4f#/	.	4dd\	.	2.ryy	.	2.ryy	.	4dd\	-to.	2.ryy	2.ryy
8D\	.	.	.	.	.	.	.	.	.	.	.	.	.
8D\	.	8r	.	8r	.	.	.	.	.	4r	.	.	.
!	!	!	!LO:HP:a:i:t=for	!	!LO:HP:a:i:t=for.	!	!	!	!	!	!	!	!
!	!	!	!LO:DY:a	!	!LO:DY:a:rj	!	!	!	!	!	!	!	!
8D\	.	4f#/	f	4a\	f	.	.	.	.	.	.	.	.
8D\	.	.	.	.	.	.	.	.	.	4r	.	.	.
8D\J	.	8a/	.	8dd\	.	.	.	.	.	.	.	.	.
!	!	!LO:LB:g=original	!	!	!	!	!	!	!	!	!	!	!
=54	=54	=54	=54	=54	=54	=54	=54	=54	=54	=54	=54	=54	=54
!	!	!	!	!	!	!	!	!	!	!LO:N:vis=00	!	!	!
8D\L	.	8dd\	.	8ff#\	.	2.ryy	.	2.ryy	.	0.r	.	2.ryy	2.ryy
8D\	.	4f#/	.	4a\	.	.	.	.	.	.	.	.	.
8D\	.	.	.	.	.	.	.	.	.	.	.	.	.
8D\	.	4g/	.	4b\	.	.	.	.	.	.	.	.	.
8D\	.	.	.	.	.	.	.	.	.	.	.	.	.
8D\J	.	8f#/	.	8a\	.	.	.	.	.	.	.	.	.
=55	=55	=55	=55	=55	=55	=55	=55	=55	=55	=55	=55	=55	=55
.	.	8qqf#/	.	8qqa/	.	.	.	.	.	.	.	.	.
8AA/L	.	4e/	.	4g/	.	2.ryy	.	2.ryy	.	.	.	2.ryy	2.ryy
8AA/	.	.	.	.	.	.	.	.	.	.	.	.	.
8AA/	.	8r	.	8r	.	.	.	.	.	.	.	.	.
8AA/	.	4e/	.	4g/	.	.	.	.	.	.	.	.	.
8AA/	.	.	.	.	.	.	.	.	.	.	.	.	.
8AA/J	.	8g/	.	8cc#X\	.	.	.	.	.	.	.	.	.
=56	=56	=56	=56	=56	=56	=56	=56	=56	=56	=56	=56	=56	=56
8AA/L	.	8cc#X\	.	8ee\	.	2.ryy	.	2.ryy	.	.	.	2.ryy	2.ryy
8AA/	.	4e/	.	4g/	.	.	.	.	.	.	.	.	.
8AA/	.	.	.	.	.	.	.	.	.	.	.	.	.
8AA/	.	4f#/	.	4a/	.	.	.	.	.	.	.	.	.
8AA/	.	.	.	.	.	.	.	.	.	.	.	.	.
8AA/J	.	8e/	.	8g/	.	.	.	.	.	.	.	.	.
=57	=57	=57	=57	=57	=57	=57	=57	=57	=57	=57	=57	=57	=57
.	.	8qqe/	.	.	.	.	.	.	.	.	.	.	.
4D\	.	8d/L	.	8f#/L|	.	2.ryy	.	2.ryy	.	.	.	2.ryy	2.ryy
.	.	(<8d/	.	(<8f#/	.	.	.	.	.	.	.	.	.
4D\	.	8e/	.	8g/	.	.	.	.	.	.	.	.	.
.	.	8d/)	.	8f#/)	.	.	.	.	.	.	.	.	.
4D\	.	(<8g/	.	(<8b/	.	.	.	.	.	.	.	.	.
.	.	8f#/J)	.	8a/J)	.	.	.	.	.	.	.	.	.
=58	=58	=58	=58	=58	=58	=58	=58	=58	=58	=58	=58	=58	=58
!	!LO:HP:a:i:t=pia	!	!	!	!	!	!	!	!	!	!	!	!
!	!LO:DY:a	!	!	!	!	!	!	!	!	!	!	!	!
!	!	!	!	!	!	!	!	!	!	!LO:N:vis=0	!	!	!
4D\	p	8r	.	8r	.	2.ryy	.	2.ryy	.	1.r	.	2.ryy	2.ryy
!	!	!	!LO:HP:a:i:t=pia	!	!LO:HP:a:i:t=pia.	!	!	!	!	!	!	!	!
!	!	!	!LO:DY:a:rj	!	!LO:DY:a:rj	!	!	!	!	!	!	!	!
.	.	(<8d/L	p	(<8f#/L	p	.	.	.	.	.	.	.	.
4D\	.	8e/	.	8g/	.	.	.	.	.	.	.	.	.
.	.	8d/)	.	8f#/)	.	.	.	.	.	.	.	.	.
4D\	.	(<8g/	.	(<8b/	.	.	.	.	.	.	.	.	.
.	.	8f#/J)	.	8a/J)	.	.	.	.	.	.	.	.	.
=59	=59	=59	=59	=59	=59	=59	=59	=59	=59	=59	=59	=59	=59
!	!LO:HP:a:i:t=for	!	!	!	!	!	!	!	!	!	!	!	!
!	!	!	!LO:HP:a:i:t=for.	!	!LO:HP:a:i:t=for	!	!	!	!	!	!	!	!
!	!LO:DY:a	!	!LO:DY:a	!	!LO:DY:a	!	!	!	!	!	!	!	!
4G\	f	8b\L	f	16b\LL	f	2.ryy	.	2.ryy	.	.	.	2.ryy	2.ryy
.	.	.	.	(>16gg\	.	.	.	.	.	.	.	.	.
.	.	16a\L	.	16ff#\	.	.	.	.	.	.	.	.	.
.	.	16g\JJ	.	16ee\JJ)	.	.	.	.	.	.	.	.	.
.	.	8qqf#/	.	8qqdd/	.	.	.	.	.	.	.	.	.
4A\	.	2e/	.	2cc#X\	.	.	.	.	.	.	.	.	.
4AA/	.	.	.	.	.	.	.	.	.	.	.	.	.
!	!	!	!	!LO:LB:g=original	!	!	!	!	!	!	!	!	!
=60	=60	=60	=60	=60	=60	=60	=60	=60	=60	=60	=60	=60	=60
!	!LO:HP:a:i:t=pia	!	!	!	!	!	!	!	!	!	!	!	!
!	!	!	!LO:HP:a:i:t=pia.	!	!LO:HP:a:i:t=pia.	!	!	!	!	!	!	!	!
!	!LO:DY:a	!	!LO:DY:a	!	!LO:DY:a	!	!	!	!	!	!	!	!
8D\L	p	8f#/L	p	8dd\L	p	2.ryy	.	2.ryy	.	2a\	Glo-	2.ryy	2.ryy
8D\	.	8f#/	.	8a\	.	.	.	.	.	.	.	.	.
8D\	.	8f#/	.	8a\	.	.	.	.	.	.	.	.	.
8D\	.	8f#/J	.	8a\J	.	.	.	.	.	.	.	.	.
8D\	.	8g/L	.	8b/L	.	.	.	.	.	8b\	-ri-	.	.
8D\J	.	(<16f#/L	.	(<16a/L	.	.	.	.	.	(>16a\LL	-a	.	.
.	.	16e/JJ)	.	16g/JJ)	.	.	.	.	.	16g\JJ)	.	.	.
=61	=61	=61	=61	=61	=61	=61	=61	=61	=61	=61	=61	=61	=61
8D\L	.	8f#/L	.	8a/L	.	2.ryy	.	2.ryy	.	(>8a\L	Pa-	2.ryy	2.ryy
8D\	.	8f#/	.	8a/	.	.	.	.	.	8f#\J)	.	.	.
8D\	.	8f#/	.	8a/	.	.	.	.	.	4d/	-tri	.	.
8D\	.	8f#/J	.	8a/J	.	.	.	.	.	.	.	.	.
8D\	.	8g/L	.	8b/L	.	.	.	.	.	8b\	glo-	.	.
8D\J	.	(<16f#/L	.	(<16a/L	.	.	.	.	.	16a\	-ri-	.	.
.	.	16e/JJ)	.	16g/JJ)	.	.	.	.	.	16g\	-a	.	.
!LO:LB:g=original	!	!	!	!	!	!	!	!	!	!	!	!	!
=62	=62	=62	=62	=62	=62	=62	=62	=62	=62	=62	=62	=62	=62
8D\L	.	8f#/L	.	8a/L	.	2.ryy	.	2.ryy	.	8a\	fi-	2.ryy	2.ryy
8D\	.	8f#/	.	8a/	.	.	.	.	.	8f#\	-li-	.	.
8D\	.	8f#/	.	8a/	.	.	.	.	.	4d/	-o	.	.
8D\	.	8f#/	.	8a/J	.	.	.	.	.	.	.	.	.
8F#\	.	8a/	.	4dd\	.	.	.	.	.	4dd\	et	.	.
8G\J	.	8b/J	.	.	.	.	.	.	.	.	.	.	.
!	!	!LO:LB:g=original	!	!	!	!	!	!	!	!LO:LB:g=original	!	!	!
=63	=63	=63	=63	=63	=63	=63	=63	=63	=63	=63	=63	=63	=63
!LO:TX:a:t=P:problem=mixed beam	!	!	!	!	!	!	!	!	!	!	!	!	!
8A\L	.	8cc#X\L	.	8ee\L	.	2.ryy	.	2.ryy	.	(>16dd\LL	Spi-	2.ryy	2.ryy
.	.	.	.	.	.	.	.	.	.	16cc#X\)	.	.	.
8AA/	.	8ee\	.	8gg\	.	.	.	.	.	(>16ee\	.	.	.
.	.	.	.	.	.	.	.	.	.	16dd\JJ)	.	.	.
8AA/	.	8ee\	.	8gg\	.	.	.	.	.	16gg\LL	.	.	.
.	.	.	.	.	.	.	.	.	.	16ff#\	.	.	.
8AA/	.	8ee\	.	8gg\	.	.	.	.	.	16ee\	.	.	.
.	.	.	.	.	.	.	.	.	.	16dd\JJ	.	.	.
8AA/	.	8ee\	.	8gg\	.	.	.	.	.	16cc#X\LL	-ri-	.	.
.	.	.	.	.	.	.	.	.	.	16b\JJ	.	.	.
8AA/J	.	8ee\J	.	8gg\J	.	.	.	.	.	16a\	-tu-	.	.
.	.	.	.	.	.	.	.	.	.	16g\	-i	.	.
=64	=64	=64	=64	=64	=64	=64	=64	=64	=64	=64	=64	=64	=64
4AA/	.	4eeT>\	.	4ggT\	.	2.ryy	.	2.ryy	.	4gT>\	Sanc-	2.ryy	2.ryy
8D\L	.	4dd\	.	4ff#\	.	.	.	.	.	4f#\	-to	.	.
16F#\L	.	.	.	.	.	.	.	.	.	.	.	.	.
16A\JJ	.	.	.	.	.	.	.	.	.	.	.	.	.
8d\L	.	4r	.	4r	.	.	.	.	.	4r	.	.	.
8A\J	.	.	.	.	.	.	.	.	.	.	.	.	.
=65	=65	=65	=65	=65	=65	=65	=65	=65	=65	=65	=65	=65	=65
8D\L	.	8a\L	.	8ff#\L	.	2.ryy	.	2.ryy	.	[>2aa\	et	2.ryy	2.ryy
8D\	.	8a\	.	8ff#\	.	.	.	.	.	.	.	.	.
8D\	.	8a\	.	8ff#\	.	.	.	.	.	.	.	.	.
8D\	.	8a\	.	8ff#\	.	.	.	.	.	.	.	.	.
8D\	.	8a\	.	8ff#\	.	.	.	.	.	16aa\LL]	.	.	.
.	.	.	.	.	.	.	.	.	.	16ff#\JJ	.	.	.
8D\J	.	8a\J	.	8ff#\J	.	.	.	.	.	(>16ee\LL	Spi-	.	.
.	.	.	.	.	.	.	.	.	.	16dd\JJ)	.	.	.
=66	=66	=66	=66	=66	=66	=66	=66	=66	=66	=66	=66	=66	=66
.	.	.	.	.	.	.	.	.	.	8qqdd/	-ri-	.	.
8D\L	.	8a\L	.	8ff#\L	.	2.ryy	.	2.ryy	.	8.ccn\	.	2.ryy	2.ryy
8D\	.	8a\	.	8ff#\	.	.	.	.	.	.	.	.	.
.	.	.	.	.	.	.	.	.	.	16b\	-tu-	.	.
.	.	.	.	.	.	.	.	.	.	8qqb/	.	.	.
8D\	.	8a\	.	8ff#\	.	.	.	.	.	2cc\	-i	.	.
8D\	.	8a\	.	8ff#\	.	.	.	.	.	.	.	.	.
8D\	.	8a\	.	8ff#\	.	.	.	.	.	.	.	.	.
8D\J	.	8a\J	.	8ff#\J	.	.	.	.	.	.	.	.	.
=67	=67	=67	=67	=67	=67	=67	=67	=67	=67	=67	=67	=67	=67
8GG/L	.	8b\L	.	8gg\L	.	2.ryy	.	2.ryy	.	2.gg\	Sanc-	2.ryy	2.ryy
8GG/	.	8b\	.	8gg\	.	.	.	.	.	.	.	.	.
8C#X/	.	8b\	.	8gg\	.	.	.	.	.	.	.	.	.
8C#/	.	8b\	.	8gg\	.	.	.	.	.	.	.	.	.
8C#/	.	8b\	.	8gg\	.	.	.	.	.	.	.	.	.
8C#/J	.	8b\J	.	8gg\J	.	.	.	.	.	.	.	.	.
=68	=68	=68	=68	=68	=68	=68	=68	=68	=68	=68	=68	=68	=68
.	.	8qqa/	.	8qqcc/	.	.	.	.	.	8qqcc/	.	.	.
4D/	.	4g/	.	4b\	.	2.ryy	.	2.ryy	.	4bt>\	.	2.ryy	2.ryy
8D/L	.	4f#/	.	4a\	.	.	.	.	.	4a\	-to	.	.
8Cn/	.	.	.	.	.	.	.	.	.	.	.	.	.
8BB/	.	4r	.	4r	.	.	.	.	.	4r	.	.	.
8AA/J	.	.	.	.	.	.	.	.	.	.	.	.	.
!	!	!	!	!	!	!	!	!	!	!LO:LB:g=original	!	!	!
=69	=69	=69	=69	=69	=69	=69	=69	=69	=69	=69	=69	=69	=69
!LO:TX:a:t=P:problem=mixed beam	!	!	!	!	!	!	!	!	!	!	!	!	!
8GG/L	.	8b\L	.	8dd\L	.	2.ryy	.	2.ryy	.	2dd\	glo-	2.ryy	2.ryy
8G\	.	8b\	.	8dd\	.	.	.	.	.	.	.	.	.
8G\	.	8b\	.	8dd\	.	.	.	.	.	.	.	.	.
8G\	.	8b\J	.	8dd\J	.	.	.	.	.	.	.	.	.
8G\	.	8cc\L	.	8ee\L	.	.	.	.	.	8ee\	-ri-	.	.
8G\J	.	(>16b\L	.	(>16dd\L	.	.	.	.	.	(>16dd\LL	-a	.	.
.	.	16a\JJ)	.	16cc\JJ)	.	.	.	.	.	16cc\JJ)	.	.	.
!LO:LB:g=original	!	!	!	!LO:LB:g=original	!	!	!	!	!	!	!	!	!
=70	=70	=70	=70	=70	=70	=70	=70	=70	=70	=70	=70	=70	=70
8G\L	.	8b\L	.	8dd\L	.	2.ryy	.	2.ryy	.	(>8dd\L	Pa-	2.ryy	2.ryy
8G\	.	8b\	.	8dd\	.	.	.	.	.	8b\J)	.	.	.
8G\	.	8b\	.	8dd\	.	.	.	.	.	4g\	-tri	.	.
8G\	.	8b\J	.	8dd\J	.	.	.	.	.	.	.	.	.
8G\	.	8cc\L	.	8ee\L	.	.	.	.	.	8ee\	glo-	.	.
8G\J	.	(>16b\L	.	(>16dd\L	.	.	.	.	.	16dd\	-ri-	.	.
.	.	16a\JJ)	.	16cc\JJ)	.	.	.	.	.	16cc\	-a	.	.
=71	=71	=71	=71	=71	=71	=71	=71	=71	=71	=71	=71	=71	=71
8G\L	.	8b\L	.	8dd\L	.	2.ryy	.	2.ryy	.	8dd\	fi-	2.ryy	2.ryy
8G\	.	8b\	.	8dd\	.	.	.	.	.	8b\	-li-	.	.
.	.	.	.	.	.	.	.	.	.	8qqa/	.	.	.
8G\	.	8b\	.	8dd\	.	.	.	.	.	4g\	-o	.	.
8G\	.	8b\	.	8dd\J	.	.	.	.	.	.	.	.	.
8B\	.	8dd\	.	[>4gg\	.	.	.	.	.	4gg\	et	.	.
8c\J	.	8ee\J	.	.	.	.	.	.	.	.	.	.	.
=72	=72	=72	=72	=72	=72	=72	=72	=72	=72	=72	=72	=72	=72
4d\	.	4a/	.	4gg\]	.	2.ryy	.	2.ryy	.	4gg\	Spi-	2.ryy	2.ryy
4D\	.	(>8a\L	.	(>8ff#\L	.	.	.	.	.	(>8ff#\L	-ri-	.	.
.	.	8cc\	.	8ee\)	.	.	.	.	.	8ee\J)	.	.	.
4D\	.	8b\)	.	(>8dd\	.	.	.	.	.	8dd\	-tu-	.	.
.	.	8a\J	.	8cc\J)	.	.	.	.	.	8cc\	-i	.	.
!	!	!LO:LB:g=original	!	!	!	!	!	!	!	!	!	!	!
=73	=73	=73	=73	=73	=73	=73	=73	=73	=73	=73	=73	=73	=73
4D\	.	4aT>/	.	4ccT>\	.	2.ryy	.	2.ryy	.	4ccT>\	Sanc-	2.ryy	2.ryy
4G\	.	4g/	.	4b\	.	.	.	.	.	4b\	-to	.	.
4GG/	.	4r	.	4r	.	.	.	.	.	4r	.	.	.
=74	=74	=74	=74	=74	=74	=74	=74	=74	=74	=74	=74	=74	=74
!	!	!LO:TX:i:a:t=rep.	!	!	!	!	!	!	!	!	!	!	!
!	!	!LO:TX:b:t=P:problem=znaki repetycji - takty 74-75	!	!	!	!	!	!	!	!	!	!	!
4GG/	.	4b\	.	2.ffn\	.	2.ryy	.	2.ryy	.	4g\	Glo-	2.ryy	2.ryy
4AA/	.	4cc\	.	.	.	.	.	.	.	4ffn\	-ri-	.	.
4BB/	.	4dd\	.	.	.	.	.	.	.	4ff\	-a	.	.
=75	=75	=75	=75	=75	=75	=75	=75	=75	=75	=75	=75	=75	=75
*	*	*	*	*	*	*	*	*	*	*Xtuplet	*	*	*
!	!	!	!	!	!	!	!	!	!	!LO:TUP:a:problem=klamra łukowa, kropka zamiast numeru	!	!	!
!	!	!	!	!LO:TUP:a:problem=klamra łukowa	!	!	!	!	!	!	!	!	!
4C/	.	4e/	.	12ee\L	.	2.ryy	.	2.ryy	.	12ee\L	Pa-	2.ryy	2.ryy
.	.	.	.	12dd\	.	.	.	.	.	12dd\	.	.	.
.	.	.	.	12cc\J	.	.	.	.	.	12cc\J	.	.	.
4D/	.	4f#/	.	2ccT>\	.	.	.	.	.	2cc\	-tri	.	.
4E/	.	4g/	.	.	.	.	.	.	.	.	.	.	.
!	!	!	!	!	!	!	!	!	!	!LO:LB:g=original	!	!	!
=76	=76	=76	=76	=76	=76	=76	=76	=76	=76	=76	=76	=76	=76
4GG/	.	4b\	.	2.ffn\	.	2.ryy	.	2.ryy	.	4g\	Glo-	2.ryy	2.ryy
4AA/	.	4cc\	.	.	.	.	.	.	.	4ffn\	-ri-	.	.
4BB/	.	4dd\	.	.	.	.	.	.	.	4ff\	-a	.	.
=77	=77	=77	=77	=77	=77	=77	=77	=77	=77	=77	=77	=77	=77
!	!	!	!	!	!	!	!	!	!	!LO:TUP:a:problem=kropka zamiast numeru	!	!	!
!	!	!	!	!LO:TUP:a:problem=klamra łukowa	!	!	!	!	!	!	!	!	!
4C/	.	4e/	.	12ee\L	.	2.ryy	.	2.ryy	.	12ee\L	fi-	2.ryy	2.ryy
.	.	.	.	12dd\	.	.	.	.	.	12dd\J	.	.	.
.	.	.	.	12cc\J	.	.	.	.	.	12cc\	-li-	.	.
4D/	.	4f#/	.	2cc\	.	.	.	.	.	2ccT>\	-o	.	.
4E/	.	4g/	.	.	.	.	.	.	.	.	.	.	.
=78	=78	=78	=78	=78	=78	=78	=78	=78	=78	=78	=78	=78	=78
4AA/	.	4cc#X\	.	2.gg\	.	2.ryy	.	2.ryy	.	4a\	et	2.ryy	2.ryy
4BB/	.	4dd\	.	.	.	.	.	.	.	2gg\	Spi-	.	.
4C#X/	.	4ee\	.	.	.	.	.	.	.	.	.	.	.
=79	=79	=79	=79	=79	=79	=79	=79	=79	=79	=79	=79	=79	=79
!	!	!	!	!	!	!	!	!	!	!LO:TUP:a:problem=kropka zamiast numeru	!	!	!
!	!	!	!	!LO:TUP:a:problem=klamra łukowa	!	!	!	!	!	!	!	!	!
4D\	.	4f#/	.	12ff#X\L	.	2.ryy	.	2.ryy	.	12ff#\L	-ri-	2.ryy	2.ryy
.	.	.	.	12ee\	.	.	.	.	.	12ee\J	.	.	.
.	.	.	.	12dd\J	.	.	.	.	.	12dd\	-tu-	.	.
4E\	.	4g/	.	2ddT>\	.	.	.	.	.	2dd\	-i	.	.
4F#\	.	4a/	.	.	.	.	.	.	.	.	.	.	.
!LO:LB:g=original	!	!	!	!	!	!	!	!	!	!	!	!	!
=80	=80	=80	=80	=80	=80	=80	=80	=80	=80	=80	=80	=80	=80
4AA/	.	4cc#X\	.	2.gg\	.	2.ryy	.	2.ryy	.	4a\	Sanc-	2.ryy	2.ryy
4BB/	.	4dd\	.	.	.	.	.	.	.	2gg\	.	.	.
4C#X/	.	4ee\	.	.	.	.	.	.	.	.	.	.	.
=81	=81	=81	=81	=81	=81	=81	=81	=81	=81	=81	=81	=81	=81
!	!	!	!	!LO:TUP:a:problem=klamra łukowa	!	!	!	!	!	!	!	!	!
4D\	.	4f#/	.	12ff#\L	.	2.ryy	.	2.ryy	.	8ff#\L	.	2.ryy	2.ryy
.	.	.	.	12ee\	.	.	.	.	.	.	.	.	.
.	.	.	.	.	.	.	.	.	.	8ee\J	.	.	.
.	.	.	.	12dd\J	.	.	.	.	.	.	.	.	.
.	.	.	.	.	.	.	.	.	.	8qqee/	.	.	.
4E\	.	4g/	.	2dd\	.	.	.	.	.	2dd\	-to	.	.
4F#\	.	4a/	.	.	.	.	.	.	.	.	.	.	.
!	!	!	!	!LO:LB:g=original	!	!	!	!	!	!	!	!	!
=82	=82	=82	=82	=82	=82	=82	=82	=82	=82	=82	=82	=82	=82
4G\	.	8b/L	.	8gg\L|	.	2.ryy	.	2.ryy	.	2.gg\	Sanc-	2.ryy	2.ryy
.	.	(<8g/	.	(>8b\	.	.	.	.	.	.	.	.	.
4GG/	.	8a/	.	8cc\	.	.	.	.	.	.	.	.	.
.	.	8g/)	.	8b\)	.	.	.	.	.	.	.	.	.
4GG/	.	(<8ccn/	.	(>8ee\	.	.	.	.	.	.	.	.	.
.	.	8b/J)	.	8dd\J)	.	.	.	.	.	.	.	.	.
=83	=83	=83	=83	=83	=83	=83	=83	=83	=83	=83	=83	=83	=83
4GG/	.	8r	.	8r	.	2.ryy	.	2.ryy	.	2.gg\	.	2.ryy	2.ryy
.	.	(<8g/L	.	(>8b\L	.	.	.	.	.	.	.	.	.
4GG/	.	8a/	.	8cc\	.	.	.	.	.	.	.	.	.
.	.	8g/)	.	8b\)	.	.	.	.	.	.	.	.	.
4GG/	.	(<8cc/	.	(>8ee\	.	.	.	.	.	.	.	.	.
.	.	8b/J)	.	8dd\J)	.	.	.	.	.	.	.	.	.
=84	=84	=84	=84	=84	=84	=84	=84	=84	=84	=84	=84	=84	=84
.	.	.	.	8qqdd/	.	.	.	.	.	8qqdd/	.	.	.
4C/	.	4e/	.	8cc\L	.	2.ryy	.	2.ryy	.	8cc\L	.	2.ryy	2.ryy
.	.	.	.	(>16b\L	.	.	.	.	.	16b\L	.	.	.
.	.	.	.	16a\JJ)	.	.	.	.	.	16a\JJ	.	.	.
4D/	.	4B/	.	4g/	.	.	.	.	.	4g\	.	.	.
!	!	!	!	!	!	!	!	!	!	!LO:TX:b:t=P:problem=końcówka taktu nieczytelna	!	!	!
4DD/	.	4c/	.	4aT>/	.	.	.	.	.	4r	.	.	.
!	!	!	!	!	!	!	!	!	!	!LO:PB:g=original	!	!	!
=85	=85	=85	=85	=85	=85	=85	=85	=85	=85	=85	=85	=85	=85
!	!	!	!LO:HP:a:i:t=for	!	!LO:HP:a:i:t=for	!	!	!	!	!	!	!	!
!LO:TX:a:t=P:problem=mixed beam	!	!	!LO:DY:a:rj	!	!LO:DY:a	!	!	!	!	!	!	!	!
8GG/L	.	8B/L	f	8g/L	f	2.ryy	.	2.ryy	.	4g\	-to	2.ryy	2.ryy
16G\L	.	16g/L	.	(<16g/L	.	.	.	.	.	.	.	.	.
16F#\JJ	.	16f#/JJ	.	16f#/JJ)	.	.	.	.	.	.	.	.	.
8G\L	.	8g/L	.	8g/L|	.	.	.	.	.	4r	.	.	.
16B\L	.	16b/L	.	16b/L	.	.	.	.	.	.	.	.	.
16A\JJ	.	16a/JJ	.	16a/JJ	.	.	.	.	.	.	.	.	.
8B\L	.	8b\L	.	8b\L	.	.	.	.	.	4r	.	.	.
8d\J	.	8dd\J	.	8dd\J	.	.	.	.	.	.	.	.	.
!	!	!LO:LB:g=original	!	!	!	!	!	!	!	!	!	!	!
=86	=86	=86	=86	=86	=86	=86	=86	=86	=86	=86	=86	=86	=86
*2\right	*	*	*	*	*	*	*	*	*	*	*	*	*
2.D;\	.	2.d;>/	.	2.d;/	.	2.ryy	.	2.ryy	.	8g\L	Sanc-	2.ryy	2.ryy
.	.	.	.	.	.	.	.	.	.	8a;>\J	.	.	.
.	.	.	.	.	.	.	.	.	.	2aT>\	.	.	.
=87	=87	=87	=87	=87	=87	=87	=87	=87	=87	=87	=87	=87	=87
!	!LO:HP:a:i:t=for	!	!	!	!	!	!	!	!	!	!	!	!
!LO:TX:a:t=P:problem=mixed beam	!LO:DY:a	!	!	!	!	!	!	!	!	!	!	!	!
!	!	!	!LO:HP:a:i:t=for	!	!LO:HP:a:i:t=for	!	!	!	!	!	!	!	!
8GG/L	f	8G/	f	8G/	f	2.ryy	.	2.ryy	.	4g\	-to.	2.ryy	2.ryy
8G\	.	4g/	.	4b\	.	.	.	.	.	.	.	.	.
8G\	.	.	.	.	.	.	.	.	.	4r	.	.	.
8G\	.	4b\	.	4dd\	.	.	.	.	.	.	.	.	.
8G\	.	.	.	.	.	.	.	.	.	4r	.	.	.
8G\J	.	8dd\	.	8gg\	.	.	.	.	.	.	.	.	.
=88	=88	=88	=88	=88	=88	=88	=88	=88	=88	=88	=88	=88	=88
!	!	!	!	!	!	!	!	!	!	!LO:N:vis=00	!	!	!
8G\L	.	8gg\	.	8bb\	.	2.ryy	.	2.ryy	.	0.r	.	2.ryy	2.ryy
8G\	.	4b\	.	4dd\	.	.	.	.	.	.	.	.	.
8G\	.	.	.	.	.	.	.	.	.	.	.	.	.
8G\	.	4cc\	.	4ee\	.	.	.	.	.	.	.	.	.
8G\	.	.	.	.	.	.	.	.	.	.	.	.	.
8G\J	.	8b\	.	8dd\	.	.	.	.	.	.	.	.	.
!LO:LB:g=original	!	!	!	!	!	!	!	!	!	!	!	!	!
=89	=89	=89	=89	=89	=89	=89	=89	=89	=89	=89	=89	=89	=89
.	.	8qqb/	.	8qqdd/	.	.	.	.	.	.	.	.	.
8D\L	.	4a\	.	4cc\	.	2.ryy	.	2.ryy	.	.	.	2.ryy	2.ryy
8D\	.	.	.	.	.	.	.	.	.	.	.	.	.
8D\	.	8r	.	8r	.	.	.	.	.	.	.	.	.
8D\	.	4a\	.	4cc\	.	.	.	.	.	.	.	.	.
8D\	.	.	.	.	.	.	.	.	.	.	.	.	.
8D\J	.	8cc\	.	8ff#\	.	.	.	.	.	.	.	.	.
!	!	!	!	!LO:LB:g=original	!	!	!	!	!	!	!	!	!
=90	=90	=90	=90	=90	=90	=90	=90	=90	=90	=90	=90	=90	=90
8D\L	.	8ff#\	.	8aa\	.	2.ryy	.	2.ryy	.	.	.	2.ryy	2.ryy
8D\	.	4a\	.	4cc\	.	.	.	.	.	.	.	.	.
8D\	.	.	.	.	.	.	.	.	.	.	.	.	.
8D\	.	4b\	.	4dd\	.	.	.	.	.	.	.	.	.
8D\	.	.	.	.	.	.	.	.	.	.	.	.	.
8D\J	.	8a\	.	8cc\	.	.	.	.	.	.	.	.	.
=91	=91	=91	=91	=91	=91	=91	=91	=91	=91	=91	=91	=91	=91
4GG/	.	8g/L|	.	8b\L|	.	2.ryy	.	2.ryy	.	.	.	2.ryy	2.ryy
.	.	(<8g/	.	(>8b\	.	.	.	.	.	.	.	.	.
4GG/	.	8a/	.	8cc\	.	.	.	.	.	.	.	.	.
.	.	8g/)	.	8b\)	.	.	.	.	.	.	.	.	.
4GG/	.	(<8cc/	.	(>8ee\	.	.	.	.	.	.	.	.	.
.	.	8b/J)	.	8dd\J)	.	.	.	.	.	.	.	.	.
=92	=92	=92	=92	=92	=92	=92	=92	=92	=92	=92	=92	=92	=92
!	!LO:HP:a:i:t=pia.	!	!	!	!	!	!	!	!	!	!	!	!
!	!LO:DY:a	!	!	!	!	!	!	!	!	!	!	!	!
!	!	!	!	!	!	!	!	!	!	!LO:N:vis=0	!	!	!
4GG/	p	8r	.	8r	.	2.ryy	.	2.ryy	.	1.r	.	2.ryy	2.ryy
!	!	!	!LO:HP:a:i:t=pia.	!	!LO:HP:a:i:t=pia.	!	!	!	!	!	!	!	!
!	!	!	!LO:DY:a	!	!LO:DY:a:rj	!	!	!	!	!	!	!	!
.	.	(<8g/L	p	(>8b\L	p	.	.	.	.	.	.	.	.
4GG/	.	8a/	.	8cc\	.	.	.	.	.	.	.	.	.
.	.	8g/)	.	8b\)	.	.	.	.	.	.	.	.	.
4GG/	.	(<8cc/	.	(>8ee\	.	.	.	.	.	.	.	.	.
.	.	8b/J)	.	8dd\J)	.	.	.	.	.	.	.	.	.
=93	=93	=93	=93	=93	=93	=93	=93	=93	=93	=93	=93	=93	=93
!LO:TX:a:t=P:problem=złe wyświetlnie	!	!	!	!	!LO:DY:a	!	!	!	!	!	!	!	!
!	!	!	!	!	!LO:HP:a:i:t=for	!	!	!	!	!	!	!	!
.	.	.	.	8qqdd/	f	.	.	.	.	.	.	.	.
!	!LO:HP:a:i:t=for.	!	!LO:HP:a:i:t=for.	!	!	!	!	!	!	!	!	!	!
!	!LO:DY:a	!	!LO:DY:a	!	!	!	!	!	!	!	!	!	!
4C#/	f	4e/	f	8cc\L	.	2.ryy	.	2.ryy	.	.	.	2.ryy	2.ryy
.	.	.	.	(>16b\L	.	.	.	.	.	.	.	.	.
.	.	.	.	16a\JJ)	.	.	.	.	.	.	.	.	.
4D/	.	4B/	.	4g/	.	.	.	.	.	.	.	.	.
4DD/	.	4c/	.	4aT>/	.	.	.	.	.	.	.	.	.
=94	=94	=94	=94	=94	=94	=94	=94	=94	=94	=94	=94	=94	=94
4GG/	.	4B/	.	4g/	.	2.ryy	.	2.ryy	.	2.r	.	2.ryy	2.ryy
4r	.	4r	.	4G/	.	.	.	.	.	.	.	.	.
4r	.	4r	.	4r	.	.	.	.	.	.	.	.	.
!LO:LB:g=original	!	!	!	!LO:TX:b:i:t=Sequitur Sicut erat	!	!	!	!	!	!LO:LB:g=original	!	!	!
!	!	!	!	!LO:TX:b:t=P:problem=napis "Sequitur Sicut erat" za podwójną kreską taktową	!	!	!	!	!	!	!	!	!
!	!	!LO:LB:g=original	!	!LO:PB:g=original	!	!	!	!	!	!	!	!LO:LB:g=original	!LO:LB:g=original
=95||;>	=95||	=95||;>	=95||	=95||;>	=95||	=95||	=95||	=95||	=95||	=95||;>	=95||	=95||	=95||
*k[f#c#]	*	*k[f#c#]	*	*k[f#c#]	*	*k[f#c#]	*	*k[f#c#]	*	*k[f#c#]	*	*k[f#c#]	*k[f#c#]
*D:	*	*D:	*	*D:	*	*D:	*	*D:	*	*D:	*	*D:	*D:
*M4/4	*	*M4/4	*	*M4/4	*	*M4/4	*	*M4/4	*	*M4/4	*	*M4/4	*M4/4
*met(c)	*	*met(c)	*	*met(c)	*	*met(c)	*	*met(c)	*	*met(c)	*	*met(c)	*met(c)
!LO:TX:b:i:t=Sicut. erat.	!	!LO:TX:b:i:t=Sicut erat.	!	!LO:TX:a:i:t=all(egr)o	!	!	!	!LO:TX:a:i:t=Tutti	!	!LO:TX:a:i:t=Tutti	!	!LO:TX:a:i:t=all(egr)o	!LO:TX:a:i:t=all(egr)o&colon;
!LO:TX:a:i:t=all(egr)o.	!	!LO:TX:a:i:t=all(egr)o.	!	!LO:TX:b:i:t=Sicut erat.	!	!LO:TX:a:i:t=all(egr)o	!	!LO:TX:a:i:t=all(egr)o	!	!LO:TX:a:i:t=all(egr)o	!	!LO:TX:b:i:t=Sicut erat	!LO:TX:b:i:t=Sicut erat
4d\	.	4ff#\	.	4ddd\	.	8d\	Si-	8A\	Si-	8ff#\	Si-	4dd\	4ff#\
.	.	.	.	.	.	8d\	-cut	8A\	-cut	8ff#\	-cut	.	.
4A\	.	4ee\	.	4ccc#\	.	4A\	e-	4c#\	e-	4ee\	e-	4a/	4ee\
4D\	.	4ff#\	.	4ddd\	.	4D\	-rat	4d\	-rat	4ff#\	-rat	4dd\	4ff#\
4r	.	8r	.	8r	.	4r	.	8r	.	8r	.	4r	4r
!	!	!	!LO:HP:a:i:t=pia	!	!LO:HP:a:i:t=pia.	!	!	!	!	!	!	!	!
!	!	!	!LO:DY:a	!	!LO:DY:a	!	!	!LO:TX:a:i:t=Solo	!	!	!	!	!
.	.	8dd\	p	8ff#\	p	.	.	8d\	Si-	8ff#\	Si-	.	.
=96	=96	=96	=96	=96	=96	=96	=96	=96	=96	=96	=96	=96	=96
8AA/L	.	(>4dd\	.	(>4ff#\	.	1r	.	4d\	.	4ff#\	.	1r	1r
8AA/	.	.	.	.	.	.	.	.	.	.	.	.	.
8AA/	.	8cc#\L)	.	8ee\L)	.	.	.	(>8c#\L	-cut	(>8ee\L	-cut	.	.
8AA/J	.	8b\J	.	8dd\J|	.	.	.	8B\J)	.	8dd\J)	.	.	.
8AA/L	.	(>4b\	.	(>4dd\	.	.	.	4B\	e-	4dd\	e-	.	.
8AA/	.	.	.	.	.	.	.	.	.	.	.	.	.
8AA/	.	8a/L)	.	8cc#\L)	.	.	.	(>8A\L	-rat	(>8cc#\L	-rat	.	.
8AA/J	.	8g/J	.	8b\J	.	.	.	8G\J)	.	8b\J)	.	.	.
=97	=97	=97	=97	=97	=97	=97	=97	=97	=97	=97	=97	=97	=97
8AA/L	.	(<4g/	.	(<4b/	.	2r	.	4G/	in	4b\	in	2r	2r
8AA/	.	.	.	.	.	.	.	.	.	.	.	.	.
8AA/	.	8f#/L)	.	8a/L)	.	.	.	(<8F#/L	prin-	(>8a\L	prin-	.	.
8AA/J	.	8e/J|	.	8g/J	.	.	.	8E/J)	.	8g\J)	.	.	.
!LO:TX:a:t=P:problem=mixed beam	!	!	!	!	!	!	!	!	!	!	!	!	!
8AA/L	.	(<4e/	.	(<4g/	.	4r	.	8E/	-ci-	8g\	-ci-	4r	4r
8AA/	.	.	.	.	.	.	.	8E/	-pi-	8g\	-pi-	.	.
!	!	!LO:TX:a:i:t=Tutti	!	!	!	!	!	!	!	!	!	!	!
!	!	!LO:TX:a:t=P:problem=mixed beam	!	!LO:TX:t=P:problem=mixed beam	!	!	!	!	!	!	!	!	!
8D\	.	8d/L)	.	8f#/L)	.	8r	.	8D/	-o	8f#\	-o	8r	8r
!	!	!	!	!	!	!	!	!LO:TX:a:i:t=Tutti	!	!LO:TX:a:i:t=Tutti	!	!	!
!	!	!	!	!	!LO:DY:a:rj	!	!	!	!	!	!	!	!
!	!	!	!	!	!LO:HP:a:i:t=for	!	!	!	!	!	!	!	!
8d\J	.	8ff#\J	.	8aa\J	f	8d\	et	8A\	et	8ff#\	et	8dd\	8ff#\
=98	=98	=98	=98	=98	=98	=98	=98	=98	=98	=98	=98	=98	=98
8c#\L	.	8ee\L	.	8aa\L	.	8c#\	nunc	8A\	nunc	8ee\	nunc	4a/	4ee\
8B\	.	8dd\	.	8aa\	.	8B\	et	8A\	et	8dd\	et	.	.
8A\	.	8cc#\	.	8aa\	.	8A\	Sem-	4A\	Sem-	8cc#\L	Sem-	8r	8r
8G\J	.	8b\J	.	8aa\J	.	8G\	.	.	.	8b\J	.	8a/	8ee\
4F#\	.	16a\LL	.	8aa\L	.	4F#\	-per	4A\	-per	4a\	-per	4dd\	4ff#\
.	.	16cc#\	.	.	.	.	.	.	.	.	.	.	.
.	.	16dd\	.	(16bb\L	.	.	.	.	.	.	.	.	.
.	.	16ee\JJ	.	16ccc#\JJ)	.	.	.	.	.	.	.	.	.
8r	.	8ff#\L	.	8ddd\L	.	8r	.	8r	.	8r	.	8r	8r
8F#\	.	8ff#\J	.	8ddd\J	.	8F#\	et	8A\	et	8dd\	et	8dd\	8ff#\
=99	=99	=99	=99	=99	=99	=99	=99	=99	=99	=99	=99	=99	=99
4G\	.	4bb\	.	4ddd\	.	4G\	Sem-	4B\	Sem-	4dd\	Sem-	4dd\	4ff#\
4A\	.	4ee\	.	4ccc#\	.	4A\	.	4E/	.	4cc#\	.	4a\	4ee\
!	!	!	!	!	!	!	!	!LO:LB:g=original	!	!	!	!	!
4D\	.	16ff#\LL	.	16ddd\LL	.	4D\	-per	4F#/	-per	4dd\	-per	4dd\	4ff#\
.	.	16dd\	.	16dd\	.	.	.	.	.	.	.	.	.
.	.	16ff#\	.	16ff#\	.	.	.	.	.	.	.	.	.
.	.	16aa\JJ	.	16aa\JJ	.	.	.	.	.	.	.	.	.
!	!	!	!	!LO:TX:t=P:problem=mixed beam	!	!	!	!	!	!	!	!	!
8r	.	8ddd\L	.	8ddd\L	.	8r	.	8r	.	8r	.	8r	8r
8d\	.	8ff#\J	.	16aa\L	.	8d\	Si-	8A\	Si-	8ff#\	Si-	8dd\	8ff#\
.	.	.	.	16a/JJ	.	.	.	.	.	.	.	.	.
!	!	!	!	!LO:LB:g=original	!	!	!	!	!	!LO:LB:g=original	!	!	!
=100	=100	=100	=100	=100	=100	=100	=100	=100	=100	=100	=100	=100	=100
!	!	!	!	!LO:TX:t=P:problem=mixed beam	!	!	!	!	!	!	!	!	!
8c#\L	.	8ee\L	.	16aa\LL	.	8c#\	.	4A\	-cut	8ee\	.	8a\L	8ee\L
.	.	.	.	16a/	.	.	.	.	.	.	.	.	.
8d\	.	8ff#\	.	16aa\	.	8d\	-cut	.	.	8ff#\	-cut	8dd\	8ff#\
.	.	.	.	16a/JJ	.	.	.	.	.	.	.	.	.
!	!	!	!	!LO:TX:t=P:problem=mixed beam	!	!	!	!	!	!	!	!	!
8c#\	.	8ee\	.	16aa\LL	.	8c#\L	e-	4A\	e-	8ee\L	e-	8a\	8ee\
.	.	.	.	16a/	.	.	.	.	.	.	.	.	.
8d\J	.	8ff#\J	.	16aa\	.	8d\J	.	.	.	8ff#\J	.	8dd\J	8ff#\J
.	.	.	.	16a/JJ	.	.	.	.	.	.	.	.	.
!	!	!	!	!LO:TX:t=P:problem=mixed beam	!	!LO:LB:g=original	!	!	!	!	!	!	!
4A\	.	16ee\LL	.	16aa\LL	.	4A\	-rat	4A\	-rat	4ee\	-rat	4a/	4ee\
.	.	16a\	.	16a/	.	.	.	.	.	.	.	.	.
.	.	16cc#\	.	16cc#/	.	.	.	.	.	.	.	.	.
.	.	16ee\JJ	.	16ee/JJ	.	.	.	.	.	.	.	.	.
!	!	!	!	!LO:TX:t=P:problem=mixed beam	!	!	!	!	!	!	!	!	!
8r	.	8aa\L	.	8aa\L	.	8r	.	8r	.	8r	.	8r	8r
8B\	.	8dd\J	.	16ff#\L	.	(>8B\	in	[>8f#\	in	(>8dd\	in	8f#/	8f#/
.	.	.	.	16f#/JJ	.	.	.	.	.	.	.	.	.
!	!	!LO:LB:g=original	!	!	!	!	!	!	!	!	!	!	!
=101	=101	=101	=101	=101	=101	=101	=101	=101	=101	=101	=101	=101	=101
!	!	!	!	!LO:TX:t=P:problem=mixed beam	!	!	!	!	!	!	!	!	!
8A#X\L	.	8cc#\L	.	16ff#\LL	.	8A#X\)	.	8f#\]	.	8cc#\)	.	8f#/L	8f#/L
.	.	.	.	16f#/	.	.	.	.	.	.	.	.	.
8B\	.	8dd\	.	16ff#\	.	8B\	prin-	8f#\	prin-	8dd\	prin-	8f#/	8f#/
.	.	.	.	16f#/JJ	.	.	.	.	.	.	.	.	.
!	!	!	!	!LO:TX:t=P:problem=mixed beam	!	!	!	!	!	!	!	!	!
8A#\	.	8cc#\	.	16ff#\LL	.	8A#\	-ci-	8f#\	-ci-	8cc#\	-ci-	8f#/	8f#/
.	.	.	.	16f#/	.	.	.	.	.	.	.	.	.
8B\J	.	8dd\J	.	16ff#\	.	8B\	-pi-	8f#\	-pi-	8dd\	-pi-	8f#/J	8f#/J
.	.	.	.	16f#/JJ	.	.	.	.	.	.	.	.	.
!	!	!LO:TX:a:t=P:problem=mixed beam	!	!LO:TX:t=P:problem=mixed beam	!	!	!	!	!	!	!	!	!
4F#\	.	16cc#\LL	.	16ff#\LL	.	4F#\	-o	4f#\	-o	4cc#\	-o	4f#/	4f#/
.	.	16f#/	.	16f#/	.	.	.	.	.	.	.	.	.
.	.	16a#X/	.	16a#X/	.	.	.	.	.	.	.	.	.
.	.	16cc#/JJ	.	16cc#/JJ	.	.	.	.	.	.	.	.	.
!	!	!	!	!LO:TX:t=P:problem=mixed beam	!	!	!	!	!	!	!	!	!
8r	.	8ff#\L	.	8ff#\L	.	8r	.	8r	.	8r	.	8r	4r
8G\	.	8b\J	.	16dd\L	.	8G\	et	8d\	et	8b\	et	8dd\	.
.	.	.	.	16d/JJ	.	.	.	.	.	.	.	.	.
!LO:LB:g=original	!	!	!	!	!	!	!	!	!	!	!	!LO:LB:g=original	!LO:LB:g=original
=102	=102	=102	=102	=102	=102	=102	=102	=102	=102	=102	=102	=102	=102
!	!	!	!	!LO:TX:t=P:problem=mixed beam	!	!	!	!	!	!	!	!	!
8F#\L	.	8an/L	.	16dd\LL	.	8F#\	nunc	8d\	nunc	8a\	nunc	8dd\L	8dd\L
.	.	.	.	16d/	.	.	.	.	.	.	.	.	.
8G\	.	8b/	.	16dd\	.	8G\	et	8d\	et	8b\	et	8dd\	8dd\
.	.	.	.	16d/JJ	.	.	.	.	.	.	.	.	.
!	!	!	!	!LO:TX:t=P:problem=mixed beam	!	!	!	!	!	!	!	!	!
8F#\	.	8a/	.	16dd\LL	.	8F#\L	Sem-	4d\	Sem-	8a\L	Sem-	8dd\	8dd\
.	.	.	.	16d/	.	.	.	.	.	.	.	.	.
8G\J	.	8b/J	.	16dd\	.	8G\J	.	.	.	8b\J	.	8dd\J	8dd\J
.	.	.	.	16d/JJ	.	.	.	.	.	.	.	.	.
!	!	!	!	!LO:TX:t=P:problem=mixed beam	!	!	!	!	!	!	!	!	!
4D\	.	16a/LL	.	16dd\LL	.	4D\	-per	4d\	-per	4a\	-per	4dd\	4dd\
.	.	16d/	.	16d/	.	.	.	.	.	.	.	.	.
.	.	16f#/	.	16f#/	.	.	.	.	.	.	.	.	.
.	.	16a/JJ	.	16an/JJ	.	.	.	.	.	.	.	.	.
8r	.	8dd\L	.	8dd\L	.	8r	.	8r	.	8r	.	8r	8r
8F#\	.	8ff#\J	.	8aa\J	.	8F#\	et	8A\	et	8ff#\	et	8ff#\	8aa\
=103	=103	=103	=103	=103	=103	=103	=103	=103	=103	=103	=103	=103	=103
4G\	.	4ee\	.	4gg\	.	4G\	Sem-	4B\	Sem-	4gg\	Sem-	4ee\	4gg\
.	.	8qqdd/	.	8qqff#/	.	.	.	.	.	8qqff#/	.	.	.
4A\	.	4cc#\	.	4ee\	.	4A\	.	4c#\	.	4ee\	.	4a/	4ee\
!	!	!	!	!LO:LB:g=original	!	!	!	!	!	!	!	!	!
4D\	.	16dd\LL	.	16ff#\LL	.	4D\	-per.	4d\	-per	4ff#\	-per	4dd\	4ff#\
.	.	16dd\	.	16dd\	.	.	.	.	.	.	.	.	.
.	.	16ff#\	.	16ff#\	.	.	.	.	.	.	.	.	.
.	.	16aa\JJ	.	16aa\JJ	.	.	.	.	.	.	.	.	.
!	!	!LO:TX:a:t=P:problem=mixed beam	!	!	!	!	!	!	!	!	!	!	!
4r	.	8ddd\L	.	8ddd\L	.	4r	.	8r	.	8r	.	4r	4r
!	!	!	!	!	!	!	!	!LO:TX:a:i:t=Solo	!	!LO:TX:a:i:t=Solo	!	!	!
!	!	!	!	!	!LO:DY:a	!	!	!	!	!	!	!	!
!	!	!	!	!	!LO:HP:a:i:t=pia:	!	!	!	!	!	!	!	!
.	.	8f#/J	.	8dd\J	p	.	.	8F#/	et	8dd\	et	.	.
!	!	!	!	!	!	!	!	!LO:LB:g=original	!	!	!	!	!
=104	=104	=104	=104	=104	=104	=104	=104	=104	=104	=104	=104	=104	=104
!	!	!	!LO:HP:a:i:t=pia	!	!	!	!	!	!	!	!	!	!
!	!	!	!LO:DY:a:rj	!	!	!	!	!	!	!	!	!LO:TX:a:t=1	!
8AA/L	.	(<4f#/	p	(>4dd\	.	1r	.	(<4F#/	.	(>4dd\	.	1r	1r
8AA/	.	.	.	.	.	.	.	.	.	.	.	.	.
8AA/	.	8e/L)	.	8cc#\L)	.	.	.	8E/)	.	8cc#\)	.	.	.
8AA/J	.	8g/J	.	8ee\J	.	.	.	8G/	in	8ee\	in	.	.
!	!	!LO:TX:a:t=P:problem=mixed beam	!	!	!	!	!	!	!	!LO:LB:g=original	!	!	!
8AA/L	.	(<8g/L	.	(>8ee\L	.	.	.	8G/	Sae-	8ee\	Sae-	.	.
8AA/	.	8f#/)	.	8dd\)	.	.	.	8F#/	-cu-	8dd\	-cu-	.	.
8AA/	.	8f#/	.	8dd\|	.	.	.	8F#/	-la	8dd\	-la	.	.
8D/J	.	8dd\J	.	8ff#\J|	.	.	.	8d\	Sae-	8ff#\	Sae-	.	.
=105	=105	=105	=105	=105	=105	=105	=105	=105	=105	=105	=105	=105	=105
8D\L	.	(4dd\	.	(4ff#\	.	2r	.	(>4d\	.	(>4ff#\	.	2r	2r
8D\	.	.	.	.	.	.	.	.	.	.	.	.	.
8D\	.	8cc#\L)	.	8ee\L)	.	.	.	8c#\)	.	8ee\)	.	.	.
8D\J 8d	.	8ee\J	.	8gg\J	.	.	.	8e\	-cu-	8gg\	-cu-	.	.
!LO:TX:a:t=P:problem=mixed beam	!	!	!	!	!	!	!	!	!	!	!	!	!
8AA/L	.	(>4ee\	.	(>4gg\	.	4r	.	4e\	-lo-	4gg\	-lo-	4r	4r
8AA/	.	.	.	.	.	.	.	.	.	.	.	.	.
8D/	.	8dd\L)	.	8ff#\L)	.	8r	.	8d\	-rum	8ff#\	-rum	8r	8r
!	!	!	!LO:HP:a:i:t=for	!	!LO:HP:a:i:t=for.	!	!	!	!	!	!	!	!
!	!	!	!LO:DY:a	!	!LO:DY:a	!	!	!	!	!	!	!	!
8d\J	.	8ff#\J	f	8aa\J	f	8d\	a-	8A\	a-	8ff#\	a-	8dd\	8ff#\
!	!	!	!	!	!	!LO:LB:g=original	!	!	!	!	!	!	!
=106	=106	=106	=106	=106	=106	=106	=106	=106	=106	=106	=106	=106	=106
8c#\L	.	8ee\L	.	8aa\L	.	8c#\L	.	4A\	.	8ee\L	.	4a/	4ee\
8B\	.	8dd\	.	8aa\	.	8B\J	.	.	.	8dd\J	.	.	.
8A\	.	8cc#\	.	8aa\	.	8A\L	-men	4A\	-men	8cc#\L	-men	8a/L	8ee\L
8G\J	.	8b\J	.	8aa\J	.	8G\J	.	.	.	8b\J	.	8a/J	8ee\J
!	!	!LO:LB:g=original	!	!	!	!	!	!	!	!	!	!	!
!	!	!LO:TX:a:t=P:problem=mixed beam	!	!	!	!	!	!	!	!	!	!	!
8F#\L	.	8a/L	.	8aa\L	.	8F#\L	a-	8A\L	a-	8a\L	a-	4dd\	4ff#\
8E\	.	8g/	.	16bb\L	.	8E\J	.	16B\L	.	8g\J	.	.	.
.	.	.	.	16ccc#\JJ	.	.	.	16c#\JJ	.	.	.	.	.
8D\	.	8f#/	.	8ddd\L	.	8D\	-men	8d\	-men	8f#/	-men	8r	8r
8d\J	.	8ff#\J	.	8aa\J	.	8d\	a-	8A\	a-	8ff#\	a-	8dd\	8ff#\
=107	=107	=107	=107	=107	=107	=107	=107	=107	=107	=107	=107	=107	=107
!LO:TX:b:t=P:problem=brak jednego taktu	!	!	!	!	!	!	!	!	!	!	!	!	!
1ryy	.	8ee\L	.	8aa\L	.	8c#\L	.	4A\	.	8ee\L	.	4a/	4ee\
.	.	8dd\	.	8aa\	.	8B\J	.	.	.	8dd\J	.	.	.
.	.	8cc#\	.	8aa\	.	8A\L	-men	4A\	-men	8cc#\L	-men	8a/L	8ee\L
.	.	8b\J	.	8aa\J	.	8G\J	.	.	.	8b\J	.	8a/J	8ee\J
!	!	!LO:TX:a:t=P:problem=mixed beam	!	!	!	!	!	!	!	!	!	!	!
.	.	8a/L	.	8aa\L	.	8F#\L	a-	8A\L	a-	8a\L	a-	4dd\	4ff#\
.	.	8g/	.	16bb\L	.	8E\J	.	16B\L	.	8g\J	.	.	.
.	.	.	.	16ccc#\JJ	.	.	.	16c#\JJ	.	.	.	.	.
.	.	8f#/	.	8ddd\L	.	8D\	-men	8d\	-men	8f#/	-men	8r	8r
.	.	8ff#\J	.	8aa\J	.	8d\	a-	8A\	a-	8ff#\	a-	8dd\	8ff#\
!	!	!	!	!	!	!	!	!LO:LB:g=original	!	!	!	!	!
=108	=108	=108	=108	=108	=108	=108	=108	=108	=108	=108	=108	=108	=108
8c#\L	.	8ee\L	.	8aa\L	.	8c#\L	.	4A\	.	8ee\L	.	4a/	4ee\
8B\	.	8dd\	.	8aa\	.	8B\	.	.	.	8dd\J	.	.	.
8A\	.	8cc#\	.	8aa\	.	8A\	-men	4A\	-men	8cc#\L	-men	8a/L	8ee\L
8G\J	.	8b\J	.	8aa\J	.	8G\J	.	.	.	8b\J	.	8a/J	8ee\J
!	!	!LO:TX:a:t=P:problem=mixed beam	!	!LO:LB:g=original	!	!	!	!	!	!	!	!	!
8F#\L	.	8a/L	.	8aa\L	.	8F#\L	a-	8A\L	a-	8a\L	a-	4dd\	4ff#\
8E\	.	8g/	.	16bb\L	.	8E\J	.	16B\L	.	8g\J	.	.	.
.	.	.	.	16ccc#\JJ	.	.	.	16c#\JJ	.	.	.	.	.
8D\	.	8f#/	.	8ddd\L	.	8D\	-men	8d\	-men	8f#/	-men	8r	8r
8F#\J	.	8ff#\J	.	8ddd\J	.	8F#\	a-	8A\	a-	8dd\	a-	8dd\	8ff#\
!	!	!	!	!	!	!	!	!	!	!LO:LB:g=original	!	!LO:LB:g=original	!LO:LB:g=original
=109	=109	=109	=109	=109	=109	=109	=109	=109	=109	=109	=109	=109	=109
4G\	.	4ff#\	.	4ddd\	.	4G\	.	4B\	.	4dd\	.	4dd\	4ff#\
4A\	.	4ee\	.	4ccc#\	.	4A\	.	4E/	.	4cc#\	.	4a/	4ee\
4D\	.	4ff#\	.	4ddd\	.	4D\	-men	4F#/	-men	4dd\	-men	4dd\	4ff#\
4A\	.	4ee\	.	4ee\	.	4A\	a-	4c#\	a-	4ee\	a-	4a/	4ee\
=110	=110	=110	=110	=110	=110	=110	=110	=110	=110	=110	=110	=110	=110
4d\	.	4ff#\	.	4ff#\	.	4d\	-men	4d\	-men	4ff#\	-men	4dd\	4ff#\
4A\	.	4ee\	.	4ccc#\	.	4A\	a-	4c#\	a-	4ee\	a-	4a/	4ee\
4D\	.	4ff#\	.	4ddd\	.	4D\	-men.	4d\	-men.	4ff#\	-men.	4dd\	4ff#\
4r	.	4r	.	4r	.	4r	.	4r	.	4r	.	4r	4r
!	!	!	!	!LO:TX:b:i:t=Laus Deo	!	!	!	!	!	!	!	!	!
!	!	!	!	!	!	!LO:TX:b:t=P:problem=zapis "Laus Deo." za podwójną kreską nutową, pod nutami	!	!LO:TX:b:t=P:problem=zapis "Laus Deo." za podwójną kreską nutową, pod nutami	!	!LO:TX:b:t=P:problem=zapis "Laus Deo." za podwójną kreską nutową, pod nutami	!	!LO:TX:b:t=P:problem=zapis "Laus Deo." za podwójną kreską nutową, pod nutami	!LO:TX:b:t=P:problem=zapis "Laus Deo." za podwójną kreską nutową, pod nutami
!LO:TX:b:t=P:problem=zapis "Laus Deo" za podwójną kreską nutową, pod nutami na pięciolinii	!	!LO:TX:b:t=P:problem=zapis "Laus Deo" za podwójną kreską nutową, pod nutami	!	!LO:TX:b:t=P:problem=zapis "Laus Deo" za podwójną kreską nutową, pod nutami na pięciolinii	!	!	!	!	!	!	!	!	!
!LO:TX:b:i:t=Laus Deo	!	!LO:TX:b:i:t=Laus Deo	!	!	!	!LO:TX:b:i:t=Laus Deo.	!	!LO:TX:b:i:t=Laus Deo.	!	!LO:TX:b:i:t=Laus Deo.	!	!LO:TX:b:i:t=Laus Deo.	!LO:TX:b:i:t=Laus Deo.
==;>	==	==;>	==	==;>	==	==;>	==	==;>	==	==;>	==	==;>	==;>
*-	*-	*-	*-	*-	*-	*-	*-	*-	*-	*-	*-	*-	*-
!!!system-decoration: [(s1,s2,s3,s4,s5,s6,s7,s8)]
!!!RDF**kern: > = above
!!!RDF**kern: < = below
!!!RDF**kern: | = vertical stroke
!!!EED: Mateusz Mrugas
!!!EEV: 2020-11-13
!!!ENC: Mateusz Solarz
!!!END: 2020-06-11
!!!YEC: Copyright 2022 Narodowy Instytut Fryderyka Chopina (https://polishscores.org)
!!!YEM: License CC-BY-4.0 (https://creativecommons.org/licenses/by/4.0)
